(G-CODE GENERATED BY FLATCAM v8.994 - www.flatcam.org - Version Date: 2020/11/7)

(Name: FullNoPower_cnc)
(Type: G-code from Geometry)
(Units: MM)

(Created on Wednesday, 04 August 2021 at 18:26)

(This preprocessor is used with a motion controller loaded with GRBL firmware. )
(It is for the case when it is used together with a LASER connected on the SPINDLE connector.)

(Feedrate: 1000.0 mm/min)
(Feedrate rapids: 1500.0 mm/min)

(Z Focus: 2.0 mm)
(Steps per circle: 64)
(Preprocessor Geometry: GRBL_laser)

(X range:  -33.1273 ...   31.5015  mm)
(Y range:  -21.5015 ...   20.5953  mm)

(Laser Power - Spindle Speed: _POWER_.0)

G00 Z0

G21
G90
G17
G94

G01 F1000.00

M5
G01 F1000.00
G00 X2.0017 Y-1.3983
G01 F60.00
M03 S_POWER_.0
G01 F1000.00
G01 X2.0021 Y-1.4082 F1000.00
G01 X2.0036 Y-1.4179 F1000.00
G01 X2.0060 Y-1.4274 F1000.00
G01 X2.0093 Y-1.4366 F1000.00
G01 X2.0135 Y-1.4455 F1000.00
G01 X2.0185 Y-1.4539 F1000.00
G01 X2.0243 Y-1.4618 F1000.00
G01 X2.0309 Y-1.4691 F1000.00
G01 X2.0382 Y-1.4757 F1000.00
G01 X2.0461 Y-1.4815 F1000.00
G01 X2.0545 Y-1.4865 F1000.00
G01 X2.0634 Y-1.4907 F1000.00
G01 X2.0726 Y-1.4940 F1000.00
G01 X2.0821 Y-1.4964 F1000.00
G01 X2.0918 Y-1.4979 F1000.00
G01 X2.1017 Y-1.4983 F1000.00
G01 X16.8983 Y-1.4983 F1000.00
G01 X16.9106 Y-1.4976 F1000.00
G01 X16.9226 Y-1.4954 F1000.00
G01 X16.9343 Y-1.4916 F1000.00
G01 X16.9455 Y-1.4865 F1000.00
G01 X16.9559 Y-1.4801 F1000.00
G01 X16.9618 Y-1.4757 F1000.00
G01 X16.9673 Y-1.4708 F1000.00
G01 X16.9757 Y-1.4618 F1000.00
G01 X16.9801 Y-1.4559 F1000.00
G01 X16.9841 Y-1.4498 F1000.00
G01 X16.9877 Y-1.4433 F1000.00
G01 X16.9907 Y-1.4366 F1000.00
G01 X16.9947 Y-1.4250 F1000.00
G01 X16.9964 Y-1.4179 F1000.00
G01 X16.9976 Y-1.4106 F1000.00
G01 X16.9983 Y-1.3983 F1000.00
G01 X16.9983 Y6.3983 F1000.00
G01 X16.9976 Y6.4106 F1000.00
G01 X16.9954 Y6.4226 F1000.00
G01 X16.9916 Y6.4343 F1000.00
G01 X16.9865 Y6.4455 F1000.00
G01 X16.9801 Y6.4559 F1000.00
G01 X16.9757 Y6.4618 F1000.00
G01 X16.9708 Y6.4673 F1000.00
G01 X16.9618 Y6.4757 F1000.00
G01 X16.9559 Y6.4801 F1000.00
G01 X16.9498 Y6.4841 F1000.00
G01 X16.9389 Y6.4898 F1000.00
G01 X16.9320 Y6.4925 F1000.00
G01 X16.9250 Y6.4947 F1000.00
G01 X16.9179 Y6.4964 F1000.00
G01 X16.9106 Y6.4976 F1000.00
G01 X16.8983 Y6.4983 F1000.00
G01 X2.1017 Y6.4983 F1000.00
G01 X2.0894 Y6.4976 F1000.00
G01 X2.0774 Y6.4954 F1000.00
G01 X2.0657 Y6.4916 F1000.00
G01 X2.0545 Y6.4865 F1000.00
G01 X2.0441 Y6.4801 F1000.00
G01 X2.0382 Y6.4757 F1000.00
G01 X2.0327 Y6.4708 F1000.00
G01 X2.0276 Y6.4655 F1000.00
G01 X2.0228 Y6.4599 F1000.00
G01 X2.0159 Y6.4498 F1000.00
G01 X2.0123 Y6.4433 F1000.00
G01 X2.0093 Y6.4366 F1000.00
G01 X2.0053 Y6.4250 F1000.00
G01 X2.0036 Y6.4179 F1000.00
G01 X2.0024 Y6.4106 F1000.00
G01 X2.0017 Y6.3983 F1000.00
G01 X2.0017 Y-1.3983 F1000.00
M5
G00 X2.0017 Y-9.8983
G01 F60.00
M03 S_POWER_.0
G01 F1000.00
G01 X2.0021 Y-9.9082 F1000.00
G01 X2.0036 Y-9.9179 F1000.00
G01 X2.0060 Y-9.9274 F1000.00
G01 X2.0093 Y-9.9366 F1000.00
G01 X2.0135 Y-9.9455 F1000.00
G01 X2.0185 Y-9.9539 F1000.00
G01 X2.0243 Y-9.9618 F1000.00
G01 X2.0309 Y-9.9691 F1000.00
G01 X2.0382 Y-9.9757 F1000.00
G01 X2.0461 Y-9.9815 F1000.00
G01 X2.0545 Y-9.9865 F1000.00
G01 X2.0634 Y-9.9907 F1000.00
G01 X2.0726 Y-9.9940 F1000.00
G01 X2.0821 Y-9.9964 F1000.00
G01 X2.0918 Y-9.9979 F1000.00
G01 X2.1017 Y-9.9983 F1000.00
G01 X16.8983 Y-9.9983 F1000.00
G01 X16.9106 Y-9.9976 F1000.00
G01 X16.9179 Y-9.9964 F1000.00
G01 X16.9250 Y-9.9947 F1000.00
G01 X16.9366 Y-9.9907 F1000.00
G01 X16.9476 Y-9.9854 F1000.00
G01 X16.9579 Y-9.9787 F1000.00
G01 X16.9637 Y-9.9741 F1000.00
G01 X16.9691 Y-9.9691 F1000.00
G01 X16.9772 Y-9.9599 F1000.00
G01 X16.9815 Y-9.9539 F1000.00
G01 X16.9854 Y-9.9476 F1000.00
G01 X16.9907 Y-9.9366 F1000.00
G01 X16.9947 Y-9.9250 F1000.00
G01 X16.9964 Y-9.9179 F1000.00
G01 X16.9976 Y-9.9106 F1000.00
G01 X16.9983 Y-9.8983 F1000.00
G01 X16.9983 Y-1.6017 F1000.00
G01 X16.9976 Y-1.5894 F1000.00
G01 X16.9964 Y-1.5821 F1000.00
G01 X16.9947 Y-1.5750 F1000.00
G01 X16.9907 Y-1.5634 F1000.00
G01 X16.9854 Y-1.5524 F1000.00
G01 X16.9815 Y-1.5461 F1000.00
G01 X16.9772 Y-1.5401 F1000.00
G01 X16.9691 Y-1.5309 F1000.00
G01 X16.9599 Y-1.5228 F1000.00
G01 X16.9539 Y-1.5185 F1000.00
G01 X16.9476 Y-1.5146 F1000.00
G01 X16.9366 Y-1.5093 F1000.00
G01 X16.9250 Y-1.5053 F1000.00
G01 X16.9179 Y-1.5036 F1000.00
G01 X16.9106 Y-1.5024 F1000.00
G01 X16.8983 Y-1.5017 F1000.00
G01 X2.1017 Y-1.5017 F1000.00
G01 X2.0894 Y-1.5024 F1000.00
G01 X2.0821 Y-1.5036 F1000.00
G01 X2.0750 Y-1.5053 F1000.00
G01 X2.0634 Y-1.5093 F1000.00
G01 X2.0524 Y-1.5146 F1000.00
G01 X2.0461 Y-1.5185 F1000.00
G01 X2.0401 Y-1.5228 F1000.00
G01 X2.0309 Y-1.5309 F1000.00
G01 X2.0228 Y-1.5401 F1000.00
G01 X2.0185 Y-1.5461 F1000.00
G01 X2.0146 Y-1.5524 F1000.00
G01 X2.0093 Y-1.5634 F1000.00
G01 X2.0053 Y-1.5750 F1000.00
G01 X2.0036 Y-1.5821 F1000.00
G01 X2.0024 Y-1.5894 F1000.00
G01 X2.0017 Y-1.6017 F1000.00
G01 X2.0017 Y-9.8983 F1000.00
M5
G00 X-12.9983 Y-9.8983
G01 F60.00
M03 S_POWER_.0
G01 F1000.00
G01 X-12.9979 Y-9.9082 F1000.00
G01 X-12.9964 Y-9.9179 F1000.00
G01 X-12.9940 Y-9.9274 F1000.00
G01 X-12.9907 Y-9.9366 F1000.00
G01 X-12.9865 Y-9.9455 F1000.00
G01 X-12.9815 Y-9.9539 F1000.00
G01 X-12.9757 Y-9.9618 F1000.00
G01 X-12.9691 Y-9.9691 F1000.00
G01 X-12.9618 Y-9.9757 F1000.00
G01 X-12.9539 Y-9.9815 F1000.00
G01 X-12.9455 Y-9.9865 F1000.00
G01 X-12.9366 Y-9.9907 F1000.00
G01 X-12.9274 Y-9.9940 F1000.00
G01 X-12.9179 Y-9.9964 F1000.00
G01 X-12.9082 Y-9.9979 F1000.00
G01 X-12.8983 Y-9.9983 F1000.00
G01 X1.8983 Y-9.9983 F1000.00
G01 X1.9106 Y-9.9976 F1000.00
G01 X1.9226 Y-9.9954 F1000.00
G01 X1.9343 Y-9.9916 F1000.00
G01 X1.9411 Y-9.9887 F1000.00
G01 X1.9476 Y-9.9854 F1000.00
G01 X1.9579 Y-9.9787 F1000.00
G01 X1.9637 Y-9.9741 F1000.00
G01 X1.9691 Y-9.9691 F1000.00
G01 X1.9772 Y-9.9599 F1000.00
G01 X1.9815 Y-9.9539 F1000.00
G01 X1.9854 Y-9.9476 F1000.00
G01 X1.9907 Y-9.9366 F1000.00
G01 X1.9933 Y-9.9297 F1000.00
G01 X1.9954 Y-9.9226 F1000.00
G01 X1.9976 Y-9.9106 F1000.00
G01 X1.9983 Y-9.8983 F1000.00
G01 X1.9983 Y-1.6017 F1000.00
G01 X1.9976 Y-1.5894 F1000.00
G01 X1.9964 Y-1.5821 F1000.00
G01 X1.9947 Y-1.5750 F1000.00
G01 X1.9907 Y-1.5634 F1000.00
G01 X1.9854 Y-1.5524 F1000.00
G01 X1.9815 Y-1.5461 F1000.00
G01 X1.9772 Y-1.5401 F1000.00
G01 X1.9691 Y-1.5309 F1000.00
G01 X1.9599 Y-1.5228 F1000.00
G01 X1.9539 Y-1.5185 F1000.00
G01 X1.9476 Y-1.5146 F1000.00
G01 X1.9366 Y-1.5093 F1000.00
G01 X1.9250 Y-1.5053 F1000.00
G01 X1.9179 Y-1.5036 F1000.00
G01 X1.9106 Y-1.5024 F1000.00
G01 X1.8983 Y-1.5017 F1000.00
G01 X-12.8983 Y-1.5017 F1000.00
G01 X-12.9106 Y-1.5024 F1000.00
G01 X-12.9226 Y-1.5046 F1000.00
G01 X-12.9297 Y-1.5067 F1000.00
G01 X-12.9366 Y-1.5093 F1000.00
G01 X-12.9476 Y-1.5146 F1000.00
G01 X-12.9539 Y-1.5185 F1000.00
G01 X-12.9599 Y-1.5228 F1000.00
G01 X-12.9691 Y-1.5309 F1000.00
G01 X-12.9772 Y-1.5401 F1000.00
G01 X-12.9841 Y-1.5502 F1000.00
G01 X-12.9877 Y-1.5567 F1000.00
G01 X-12.9907 Y-1.5634 F1000.00
G01 X-12.9947 Y-1.5750 F1000.00
G01 X-12.9964 Y-1.5821 F1000.00
G01 X-12.9976 Y-1.5894 F1000.00
G01 X-12.9983 Y-1.6017 F1000.00
G01 X-12.9983 Y-9.8983 F1000.00
M5
G00 X-12.9983 Y-1.3983
G01 F60.00
M03 S_POWER_.0
G01 F1000.00
G01 X-12.9979 Y-1.4082 F1000.00
G01 X-12.9964 Y-1.4179 F1000.00
G01 X-12.9940 Y-1.4274 F1000.00
G01 X-12.9907 Y-1.4366 F1000.00
G01 X-12.9865 Y-1.4455 F1000.00
G01 X-12.9815 Y-1.4539 F1000.00
G01 X-12.9757 Y-1.4618 F1000.00
G01 X-12.9691 Y-1.4691 F1000.00
G01 X-12.9618 Y-1.4757 F1000.00
G01 X-12.9539 Y-1.4815 F1000.00
G01 X-12.9455 Y-1.4865 F1000.00
G01 X-12.9366 Y-1.4907 F1000.00
G01 X-12.9274 Y-1.4940 F1000.00
G01 X-12.9179 Y-1.4964 F1000.00
G01 X-12.9082 Y-1.4979 F1000.00
G01 X-12.8983 Y-1.4983 F1000.00
G01 X1.8983 Y-1.4983 F1000.00
G01 X1.9106 Y-1.4976 F1000.00
G01 X1.9226 Y-1.4954 F1000.00
G01 X1.9343 Y-1.4916 F1000.00
G01 X1.9455 Y-1.4865 F1000.00
G01 X1.9518 Y-1.4828 F1000.00
G01 X1.9579 Y-1.4787 F1000.00
G01 X1.9673 Y-1.4708 F1000.00
G01 X1.9757 Y-1.4618 F1000.00
G01 X1.9801 Y-1.4559 F1000.00
G01 X1.9841 Y-1.4498 F1000.00
G01 X1.9898 Y-1.4389 F1000.00
G01 X1.9925 Y-1.4320 F1000.00
G01 X1.9947 Y-1.4250 F1000.00
G01 X1.9964 Y-1.4179 F1000.00
G01 X1.9976 Y-1.4106 F1000.00
G01 X1.9983 Y-1.3983 F1000.00
G01 X1.9983 Y6.3983 F1000.00
G01 X1.9976 Y6.4106 F1000.00
G01 X1.9954 Y6.4226 F1000.00
G01 X1.9916 Y6.4343 F1000.00
G01 X1.9865 Y6.4455 F1000.00
G01 X1.9801 Y6.4559 F1000.00
G01 X1.9757 Y6.4618 F1000.00
G01 X1.9708 Y6.4673 F1000.00
G01 X1.9618 Y6.4757 F1000.00
G01 X1.9559 Y6.4801 F1000.00
G01 X1.9498 Y6.4841 F1000.00
G01 X1.9389 Y6.4898 F1000.00
G01 X1.9320 Y6.4925 F1000.00
G01 X1.9250 Y6.4947 F1000.00
G01 X1.9130 Y6.4973 F1000.00
G01 X1.9057 Y6.4981 F1000.00
G01 X1.8983 Y6.4983 F1000.00
G01 X-12.8983 Y6.4983 F1000.00
G01 X-12.9106 Y6.4976 F1000.00
G01 X-12.9226 Y6.4954 F1000.00
G01 X-12.9343 Y6.4916 F1000.00
G01 X-12.9455 Y6.4865 F1000.00
G01 X-12.9518 Y6.4828 F1000.00
G01 X-12.9579 Y6.4787 F1000.00
G01 X-12.9673 Y6.4708 F1000.00
G01 X-12.9724 Y6.4655 F1000.00
G01 X-12.9772 Y6.4599 F1000.00
G01 X-12.9841 Y6.4498 F1000.00
G01 X-12.9877 Y6.4433 F1000.00
G01 X-12.9907 Y6.4366 F1000.00
G01 X-12.9947 Y6.4250 F1000.00
G01 X-12.9964 Y6.4179 F1000.00
G01 X-12.9976 Y6.4106 F1000.00
G01 X-12.9983 Y6.3983 F1000.00
G01 X-12.9983 Y-1.3983 F1000.00
M5
G00 X-27.4975 Y-1.5017
G01 F60.00
M03 S_POWER_.0
G01 F1000.00
G01 X-27.5009 Y-1.5013 F1000.00
G01 X-27.5015 Y-1.5003 F1000.00
G01 X-27.5013 Y-1.4991 F1000.00
G01 X-27.5003 Y-1.4985 F1000.00
G01 X-27.4975 Y-1.4983 F1000.00
G01 X-13.1017 Y-1.4983 F1000.00
G01 X-13.0918 Y-1.4979 F1000.00
G01 X-13.0821 Y-1.4964 F1000.00
G01 X-13.0726 Y-1.4940 F1000.00
G01 X-13.0611 Y-1.4898 F1000.00
G01 X-13.0524 Y-1.4854 F1000.00
G01 X-13.0441 Y-1.4801 F1000.00
G01 X-13.0363 Y-1.4741 F1000.00
G01 X-13.0292 Y-1.4673 F1000.00
G01 X-13.0228 Y-1.4599 F1000.00
G01 X-13.0172 Y-1.4518 F1000.00
G01 X-13.0123 Y-1.4433 F1000.00
G01 X-13.0084 Y-1.4343 F1000.00
G01 X-13.0053 Y-1.4250 F1000.00
G01 X-13.0031 Y-1.4154 F1000.00
G01 X-13.0019 Y-1.4057 F1000.00
G01 X-13.0017 Y-1.3983 F1000.00
G01 X-13.0017 Y6.3983 F1000.00
G01 X-13.0024 Y6.4106 F1000.00
G01 X-13.0036 Y6.4179 F1000.00
G01 X-13.0053 Y6.4250 F1000.00
G01 X-13.0093 Y6.4366 F1000.00
G01 X-13.0123 Y6.4433 F1000.00
G01 X-13.0159 Y6.4498 F1000.00
G01 X-13.0228 Y6.4599 F1000.00
G01 X-13.0309 Y6.4691 F1000.00
G01 X-13.0401 Y6.4772 F1000.00
G01 X-13.0461 Y6.4815 F1000.00
G01 X-13.0524 Y6.4854 F1000.00
G01 X-13.0634 Y6.4907 F1000.00
G01 X-13.0703 Y6.4933 F1000.00
G01 X-13.0774 Y6.4954 F1000.00
G01 X-13.0894 Y6.4976 F1000.00
G01 X-13.1017 Y6.4983 F1000.00
G01 X-27.4975 Y6.4983 F1000.00
G01 X-27.5006 Y6.4986 F1000.00
G01 X-27.5013 Y6.4991 F1000.00
G01 X-27.5015 Y6.5000 F1000.00
G01 X-27.5013 Y6.5009 F1000.00
G01 X-27.5006 Y6.5014 F1000.00
G01 X-27.4975 Y6.5017 F1000.00
G01 X-13.1017 Y6.5017 F1000.00
G01 X-13.0894 Y6.5024 F1000.00
G01 X-13.0797 Y6.5041 F1000.00
G01 X-13.0680 Y6.5075 F1000.00
G01 X-13.0567 Y6.5123 F1000.00
G01 X-13.0502 Y6.5159 F1000.00
G01 X-13.0441 Y6.5199 F1000.00
G01 X-13.0345 Y6.5276 F1000.00
G01 X-13.0292 Y6.5327 F1000.00
G01 X-13.0243 Y6.5382 F1000.00
G01 X-13.0172 Y6.5482 F1000.00
G01 X-13.0135 Y6.5545 F1000.00
G01 X-13.0102 Y6.5611 F1000.00
G01 X-13.0075 Y6.5680 F1000.00
G01 X-13.0053 Y6.5750 F1000.00
G01 X-13.0036 Y6.5821 F1000.00
G01 X-13.0024 Y6.5894 F1000.00
G01 X-13.0017 Y6.6017 F1000.00
G01 X-13.0017 Y13.9975 F1000.00
G01 X-13.0015 Y14.0004 F1000.00
G01 X-13.0004 Y14.0015 F1000.00
G01 X-12.9994 Y14.0014 F1000.00
G01 X-12.9987 Y14.0007 F1000.00
G01 X-12.9983 Y13.9975 F1000.00
G01 X-12.9983 Y6.6017 F1000.00
G01 X-12.9981 Y6.5943 F1000.00
G01 X-12.9973 Y6.5870 F1000.00
G01 X-12.9954 Y6.5774 F1000.00
G01 X-12.9933 Y6.5703 F1000.00
G01 X-12.9907 Y6.5634 F1000.00
G01 X-12.9865 Y6.5545 F1000.00
G01 X-12.9815 Y6.5461 F1000.00
G01 X-12.9772 Y6.5401 F1000.00
G01 X-12.9708 Y6.5327 F1000.00
G01 X-12.9655 Y6.5276 F1000.00
G01 X-12.9599 Y6.5228 F1000.00
G01 X-12.9539 Y6.5185 F1000.00
G01 X-12.9455 Y6.5135 F1000.00
G01 X-12.9389 Y6.5102 F1000.00
G01 X-12.9320 Y6.5075 F1000.00
G01 X-12.9226 Y6.5046 F1000.00
G01 X-12.9106 Y6.5024 F1000.00
G01 X-12.8983 Y6.5017 F1000.00
G01 X1.8983 Y6.5017 F1000.00
G01 X1.9106 Y6.5024 F1000.00
G01 X1.9203 Y6.5041 F1000.00
G01 X1.9320 Y6.5075 F1000.00
G01 X1.9433 Y6.5123 F1000.00
G01 X1.9539 Y6.5185 F1000.00
G01 X1.9599 Y6.5228 F1000.00
G01 X1.9655 Y6.5276 F1000.00
G01 X1.9741 Y6.5363 F1000.00
G01 X1.9787 Y6.5421 F1000.00
G01 X1.9828 Y6.5482 F1000.00
G01 X1.9865 Y6.5545 F1000.00
G01 X1.9898 Y6.5611 F1000.00
G01 X1.9925 Y6.5680 F1000.00
G01 X1.9947 Y6.5750 F1000.00
G01 X1.9964 Y6.5821 F1000.00
G01 X1.9976 Y6.5894 F1000.00
G01 X1.9983 Y6.6017 F1000.00
G01 X1.9983 Y13.9975 F1000.00
G01 X1.9986 Y14.0006 F1000.00
G01 X1.9991 Y14.0013 F1000.00
G01 X2.0000 Y14.0015 F1000.00
G01 X2.0009 Y14.0013 F1000.00
G01 X2.0014 Y14.0006 F1000.00
G01 X2.0017 Y13.9975 F1000.00
G01 X2.0017 Y6.6017 F1000.00
G01 X2.0024 Y6.5894 F1000.00
G01 X2.0036 Y6.5821 F1000.00
G01 X2.0053 Y6.5750 F1000.00
G01 X2.0075 Y6.5680 F1000.00
G01 X2.0102 Y6.5611 F1000.00
G01 X2.0135 Y6.5545 F1000.00
G01 X2.0172 Y6.5482 F1000.00
G01 X2.0213 Y6.5421 F1000.00
G01 X2.0259 Y6.5363 F1000.00
G01 X2.0345 Y6.5276 F1000.00
G01 X2.0401 Y6.5228 F1000.00
G01 X2.0461 Y6.5185 F1000.00
G01 X2.0567 Y6.5123 F1000.00
G01 X2.0680 Y6.5075 F1000.00
G01 X2.0797 Y6.5041 F1000.00
G01 X2.0894 Y6.5024 F1000.00
G01 X2.1017 Y6.5017 F1000.00
G01 X16.8983 Y6.5017 F1000.00
G01 X16.9082 Y6.5021 F1000.00
G01 X16.9179 Y6.5036 F1000.00
G01 X16.9274 Y6.5060 F1000.00
G01 X16.9366 Y6.5093 F1000.00
G01 X16.9455 Y6.5135 F1000.00
G01 X16.9539 Y6.5185 F1000.00
G01 X16.9618 Y6.5243 F1000.00
G01 X16.9691 Y6.5309 F1000.00
G01 X16.9757 Y6.5382 F1000.00
G01 X16.9815 Y6.5461 F1000.00
G01 X16.9854 Y6.5524 F1000.00
G01 X16.9898 Y6.5611 F1000.00
G01 X16.9933 Y6.5703 F1000.00
G01 X16.9959 Y6.5797 F1000.00
G01 X16.9976 Y6.5894 F1000.00
G01 X16.9983 Y6.5992 F1000.00
G01 X16.9983 Y13.9975 F1000.00
G01 X16.9986 Y14.0006 F1000.00
G01 X16.9991 Y14.0013 F1000.00
G01 X17.0001 Y14.0015 F1000.00
G01 X17.0014 Y14.0006 F1000.00
G01 X17.0017 Y13.9975 F1000.00
G01 X17.0017 Y6.6017 F1000.00
G01 X17.0024 Y6.5894 F1000.00
G01 X17.0036 Y6.5821 F1000.00
G01 X17.0053 Y6.5750 F1000.00
G01 X17.0093 Y6.5634 F1000.00
G01 X17.0123 Y6.5567 F1000.00
G01 X17.0159 Y6.5502 F1000.00
G01 X17.0199 Y6.5441 F1000.00
G01 X17.0243 Y6.5382 F1000.00
G01 X17.0327 Y6.5292 F1000.00
G01 X17.0382 Y6.5243 F1000.00
G01 X17.0441 Y6.5199 F1000.00
G01 X17.0502 Y6.5159 F1000.00
G01 X17.0567 Y6.5123 F1000.00
G01 X17.0680 Y6.5075 F1000.00
G01 X17.0797 Y6.5041 F1000.00
G01 X17.0894 Y6.5024 F1000.00
G01 X17.1017 Y6.5017 F1000.00
G01 X31.4975 Y6.5017 F1000.00
G01 X31.5006 Y6.5014 F1000.00
G01 X31.5013 Y6.5009 F1000.00
G01 X31.5015 Y6.5000 F1000.00
G01 X31.5013 Y6.4991 F1000.00
G01 X31.5006 Y6.4986 F1000.00
G01 X31.4975 Y6.4983 F1000.00
G01 X17.1017 Y6.4983 F1000.00
G01 X17.0894 Y6.4976 F1000.00
G01 X17.0797 Y6.4959 F1000.00
G01 X17.0703 Y6.4933 F1000.00
G01 X17.0589 Y6.4887 F1000.00
G01 X17.0502 Y6.4841 F1000.00
G01 X17.0421 Y6.4787 F1000.00
G01 X17.0327 Y6.4708 F1000.00
G01 X17.0259 Y6.4637 F1000.00
G01 X17.0199 Y6.4559 F1000.00
G01 X17.0146 Y6.4476 F1000.00
G01 X17.0113 Y6.4411 F1000.00
G01 X17.0075 Y6.4320 F1000.00
G01 X17.0053 Y6.4250 F1000.00
G01 X17.0031 Y6.4154 F1000.00
G01 X17.0019 Y6.4057 F1000.00
G01 X17.0017 Y6.3983 F1000.00
G01 X17.0017 Y-1.3983 F1000.00
G01 X17.0024 Y-1.4106 F1000.00
G01 X17.0036 Y-1.4179 F1000.00
G01 X17.0053 Y-1.4250 F1000.00
G01 X17.0093 Y-1.4366 F1000.00
G01 X17.0123 Y-1.4433 F1000.00
G01 X17.0159 Y-1.4498 F1000.00
G01 X17.0199 Y-1.4559 F1000.00
G01 X17.0243 Y-1.4618 F1000.00
G01 X17.0327 Y-1.4708 F1000.00
G01 X17.0382 Y-1.4757 F1000.00
G01 X17.0441 Y-1.4801 F1000.00
G01 X17.0545 Y-1.4865 F1000.00
G01 X17.0657 Y-1.4916 F1000.00
G01 X17.0774 Y-1.4954 F1000.00
G01 X17.0894 Y-1.4976 F1000.00
G01 X17.1017 Y-1.4983 F1000.00
G01 X31.4975 Y-1.4983 F1000.00
G01 X31.5006 Y-1.4986 F1000.00
G01 X31.5013 Y-1.4991 F1000.00
G01 X31.5015 Y-1.5000 F1000.00
G01 X31.5013 Y-1.5009 F1000.00
G01 X31.5006 Y-1.5014 F1000.00
G01 X31.4975 Y-1.5017 F1000.00
G01 X17.1017 Y-1.5017 F1000.00
G01 X17.0894 Y-1.5024 F1000.00
G01 X17.0821 Y-1.5036 F1000.00
G01 X17.0750 Y-1.5053 F1000.00
G01 X17.0680 Y-1.5075 F1000.00
G01 X17.0611 Y-1.5102 F1000.00
G01 X17.0502 Y-1.5159 F1000.00
G01 X17.0441 Y-1.5199 F1000.00
G01 X17.0382 Y-1.5243 F1000.00
G01 X17.0292 Y-1.5327 F1000.00
G01 X17.0213 Y-1.5421 F1000.00
G01 X17.0146 Y-1.5524 F1000.00
G01 X17.0093 Y-1.5634 F1000.00
G01 X17.0053 Y-1.5750 F1000.00
G01 X17.0036 Y-1.5821 F1000.00
G01 X17.0024 Y-1.5894 F1000.00
G01 X17.0017 Y-1.6017 F1000.00
G01 X17.0017 Y-9.8983 F1000.00
G01 X17.0024 Y-9.9106 F1000.00
G01 X17.0036 Y-9.9179 F1000.00
G01 X17.0053 Y-9.9250 F1000.00
G01 X17.0075 Y-9.9320 F1000.00
G01 X17.0102 Y-9.9389 F1000.00
G01 X17.0159 Y-9.9498 F1000.00
G01 X17.0199 Y-9.9559 F1000.00
G01 X17.0243 Y-9.9618 F1000.00
G01 X17.0327 Y-9.9708 F1000.00
G01 X17.0421 Y-9.9787 F1000.00
G01 X17.0524 Y-9.9854 F1000.00
G01 X17.0634 Y-9.9907 F1000.00
G01 X17.0750 Y-9.9947 F1000.00
G01 X17.0821 Y-9.9964 F1000.00
G01 X17.0894 Y-9.9976 F1000.00
G01 X17.1017 Y-9.9983 F1000.00
G01 X31.4975 Y-9.9983 F1000.00
G01 X31.5006 Y-9.9986 F1000.00
G01 X31.5013 Y-9.9993 F1000.00
G01 X31.5015 Y-10.0001 F1000.00
G01 X31.5006 Y-10.0014 F1000.00
G01 X31.4975 Y-10.0017 F1000.00
G01 X17.1017 Y-10.0017 F1000.00
G01 X17.0894 Y-10.0024 F1000.00
G01 X17.0774 Y-10.0046 F1000.00
G01 X17.0680 Y-10.0075 F1000.00
G01 X17.0567 Y-10.0123 F1000.00
G01 X17.0502 Y-10.0159 F1000.00
G01 X17.0441 Y-10.0199 F1000.00
G01 X17.0382 Y-10.0243 F1000.00
G01 X17.0327 Y-10.0292 F1000.00
G01 X17.0243 Y-10.0382 F1000.00
G01 X17.0199 Y-10.0441 F1000.00
G01 X17.0159 Y-10.0502 F1000.00
G01 X17.0102 Y-10.0611 F1000.00
G01 X17.0075 Y-10.0680 F1000.00
G01 X17.0053 Y-10.0750 F1000.00
G01 X17.0036 Y-10.0821 F1000.00
G01 X17.0024 Y-10.0894 F1000.00
G01 X17.0017 Y-10.1017 F1000.00
G01 X17.0017 Y-17.4975 F1000.00
G01 X17.0014 Y-17.5006 F1000.00
G01 X17.0009 Y-17.5013 F1000.00
G01 X17.0000 Y-17.5015 F1000.00
G01 X16.9991 Y-17.5013 F1000.00
G01 X16.9986 Y-17.5006 F1000.00
G01 X16.9983 Y-17.4975 F1000.00
G01 X16.9983 Y-10.1017 F1000.00
G01 X16.9981 Y-10.0943 F1000.00
G01 X16.9973 Y-10.0870 F1000.00
G01 X16.9954 Y-10.0774 F1000.00
G01 X16.9933 Y-10.0703 F1000.00
G01 X16.9898 Y-10.0611 F1000.00
G01 X16.9865 Y-10.0545 F1000.00
G01 X16.9828 Y-10.0482 F1000.00
G01 X16.9772 Y-10.0401 F1000.00
G01 X16.9708 Y-10.0327 F1000.00
G01 X16.9655 Y-10.0276 F1000.00
G01 X16.9579 Y-10.0213 F1000.00
G01 X16.9518 Y-10.0172 F1000.00
G01 X16.9455 Y-10.0135 F1000.00
G01 X16.9366 Y-10.0093 F1000.00
G01 X16.9297 Y-10.0067 F1000.00
G01 X16.9226 Y-10.0046 F1000.00
G01 X16.9106 Y-10.0024 F1000.00
G01 X16.8983 Y-10.0017 F1000.00
G01 X2.1017 Y-10.0017 F1000.00
G01 X2.0918 Y-10.0021 F1000.00
G01 X2.0797 Y-10.0041 F1000.00
G01 X2.0680 Y-10.0075 F1000.00
G01 X2.0567 Y-10.0123 F1000.00
G01 X2.0502 Y-10.0159 F1000.00
G01 X2.0441 Y-10.0199 F1000.00
G01 X2.0345 Y-10.0276 F1000.00
G01 X2.0292 Y-10.0327 F1000.00
G01 X2.0243 Y-10.0382 F1000.00
G01 X2.0199 Y-10.0441 F1000.00
G01 X2.0159 Y-10.0502 F1000.00
G01 X2.0102 Y-10.0611 F1000.00
G01 X2.0075 Y-10.0680 F1000.00
G01 X2.0053 Y-10.0750 F1000.00
G01 X2.0027 Y-10.0870 F1000.00
G01 X2.0019 Y-10.0943 F1000.00
G01 X2.0017 Y-10.1017 F1000.00
G01 X2.0017 Y-17.4975 F1000.00
G01 X2.0014 Y-17.5006 F1000.00
G01 X2.0009 Y-17.5013 F1000.00
G01 X2.0000 Y-17.5015 F1000.00
G01 X1.9991 Y-17.5013 F1000.00
G01 X1.9986 Y-17.5006 F1000.00
G01 X1.9983 Y-17.4975 F1000.00
G01 X1.9983 Y-10.1017 F1000.00
G01 X1.9981 Y-10.0943 F1000.00
G01 X1.9973 Y-10.0870 F1000.00
G01 X1.9947 Y-10.0750 F1000.00
G01 X1.9925 Y-10.0680 F1000.00
G01 X1.9898 Y-10.0611 F1000.00
G01 X1.9841 Y-10.0502 F1000.00
G01 X1.9801 Y-10.0441 F1000.00
G01 X1.9757 Y-10.0382 F1000.00
G01 X1.9708 Y-10.0327 F1000.00
G01 X1.9655 Y-10.0276 F1000.00
G01 X1.9559 Y-10.0199 F1000.00
G01 X1.9498 Y-10.0159 F1000.00
G01 X1.9433 Y-10.0123 F1000.00
G01 X1.9320 Y-10.0075 F1000.00
G01 X1.9203 Y-10.0041 F1000.00
G01 X1.9082 Y-10.0021 F1000.00
G01 X1.8983 Y-10.0017 F1000.00
G01 X-12.8983 Y-10.0017 F1000.00
G01 X-12.9057 Y-10.0019 F1000.00
G01 X-12.9154 Y-10.0031 F1000.00
G01 X-12.9250 Y-10.0053 F1000.00
G01 X-12.9320 Y-10.0075 F1000.00
G01 X-12.9411 Y-10.0113 F1000.00
G01 X-12.9498 Y-10.0159 F1000.00
G01 X-12.9579 Y-10.0213 F1000.00
G01 X-12.9637 Y-10.0259 F1000.00
G01 X-12.9708 Y-10.0327 F1000.00
G01 X-12.9757 Y-10.0382 F1000.00
G01 X-12.9801 Y-10.0441 F1000.00
G01 X-12.9854 Y-10.0524 F1000.00
G01 X-12.9887 Y-10.0589 F1000.00
G01 X-12.9925 Y-10.0680 F1000.00
G01 X-12.9947 Y-10.0750 F1000.00
G01 X-12.9969 Y-10.0846 F1000.00
G01 X-12.9981 Y-10.0943 F1000.00
G01 X-12.9983 Y-10.1017 F1000.00
G01 X-12.9983 Y-17.4975 F1000.00
G01 X-12.9986 Y-17.5006 F1000.00
G01 X-12.9993 Y-17.5013 F1000.00
G01 X-13.0001 Y-17.5015 F1000.00
G01 X-13.0014 Y-17.5006 F1000.00
G01 X-13.0017 Y-17.4975 F1000.00
G01 X-13.0017 Y-10.1017 F1000.00
G01 X-13.0024 Y-10.0894 F1000.00
G01 X-13.0036 Y-10.0821 F1000.00
G01 X-13.0053 Y-10.0750 F1000.00
G01 X-13.0075 Y-10.0680 F1000.00
G01 X-13.0102 Y-10.0611 F1000.00
G01 X-13.0135 Y-10.0545 F1000.00
G01 X-13.0172 Y-10.0482 F1000.00
G01 X-13.0243 Y-10.0382 F1000.00
G01 X-13.0292 Y-10.0327 F1000.00
G01 X-13.0345 Y-10.0276 F1000.00
G01 X-13.0441 Y-10.0199 F1000.00
G01 X-13.0502 Y-10.0159 F1000.00
G01 X-13.0567 Y-10.0123 F1000.00
G01 X-13.0680 Y-10.0075 F1000.00
G01 X-13.0797 Y-10.0041 F1000.00
G01 X-13.0918 Y-10.0021 F1000.00
G01 X-13.1017 Y-10.0017 F1000.00
G01 X-27.4975 Y-10.0017 F1000.00
G01 X-27.5006 Y-10.0014 F1000.00
G01 X-27.5013 Y-10.0009 F1000.00
G01 X-27.5015 Y-10.0000 F1000.00
G01 X-27.5013 Y-9.9991 F1000.00
G01 X-27.5006 Y-9.9986 F1000.00
G01 X-27.4975 Y-9.9983 F1000.00
G01 X-13.1017 Y-9.9983 F1000.00
G01 X-13.0894 Y-9.9976 F1000.00
G01 X-13.0821 Y-9.9964 F1000.00
G01 X-13.0750 Y-9.9947 F1000.00
G01 X-13.0680 Y-9.9925 F1000.00
G01 X-13.0611 Y-9.9898 F1000.00
G01 X-13.0502 Y-9.9841 F1000.00
G01 X-13.0401 Y-9.9772 F1000.00
G01 X-13.0345 Y-9.9724 F1000.00
G01 X-13.0292 Y-9.9673 F1000.00
G01 X-13.0213 Y-9.9579 F1000.00
G01 X-13.0146 Y-9.9476 F1000.00
G01 X-13.0113 Y-9.9411 F1000.00
G01 X-13.0084 Y-9.9343 F1000.00
G01 X-13.0046 Y-9.9226 F1000.00
G01 X-13.0024 Y-9.9106 F1000.00
G01 X-13.0017 Y-9.8983 F1000.00
G01 X-13.0017 Y-1.6017 F1000.00
G01 X-13.0019 Y-1.5943 F1000.00
G01 X-13.0031 Y-1.5846 F1000.00
G01 X-13.0053 Y-1.5750 F1000.00
G01 X-13.0084 Y-1.5657 F1000.00
G01 X-13.0123 Y-1.5567 F1000.00
G01 X-13.0172 Y-1.5482 F1000.00
G01 X-13.0213 Y-1.5421 F1000.00
G01 X-13.0276 Y-1.5345 F1000.00
G01 X-13.0345 Y-1.5276 F1000.00
G01 X-13.0421 Y-1.5213 F1000.00
G01 X-13.0524 Y-1.5146 F1000.00
G01 X-13.0611 Y-1.5102 F1000.00
G01 X-13.0726 Y-1.5060 F1000.00
G01 X-13.0821 Y-1.5036 F1000.00
G01 X-13.0918 Y-1.5021 F1000.00
G01 X-13.1017 Y-1.5017 F1000.00
G01 X-27.4975 Y-1.5017 F1000.00
M5
G00 X-29.1068 Y-2.8861
G01 F60.00
M03 S_POWER_.0
G01 F1000.00
G01 X-29.1050 Y-2.8883 F1000.00
G01 X-29.1050 Y-2.8896 F1000.00
G01 X-29.1060 Y-2.8905 F1000.00
G01 X-29.1088 Y-2.8907 F1000.00
G01 X-30.3231 Y-2.8907 F1000.00
G01 X-30.3262 Y-2.8904 F1000.00
G01 X-30.3269 Y-2.8899 F1000.00
G01 X-30.3271 Y-2.8890 F1000.00
G01 X-30.3269 Y-2.8881 F1000.00
G01 X-30.3262 Y-2.8876 F1000.00
G01 X-30.3231 Y-2.8873 F1000.00
G01 X-29.3347 Y-2.8873 F1000.00
G01 X-29.3227 Y-2.8863 F1000.00
G01 X-29.3109 Y-2.8839 F1000.00
G01 X-29.2995 Y-2.8800 F1000.00
G01 X-29.2886 Y-2.8748 F1000.00
G01 X-29.2804 Y-2.8698 F1000.00
G01 X-29.2728 Y-2.8639 F1000.00
G01 X-29.2657 Y-2.8574 F1000.00
G01 X-29.2593 Y-2.8502 F1000.00
G01 X-29.2536 Y-2.8425 F1000.00
G01 X-29.2487 Y-2.8342 F1000.00
G01 X-29.2446 Y-2.8255 F1000.00
G01 X-29.2414 Y-2.8164 F1000.00
G01 X-29.2390 Y-2.8071 F1000.00
G01 X-29.2376 Y-2.7975 F1000.00
G01 X-29.2371 Y-2.7879 F1000.00
G01 X-29.2375 Y-2.7783 F1000.00
G01 X-29.2388 Y-2.7688 F1000.00
G01 X-29.2411 Y-2.7594 F1000.00
G01 X-29.2442 Y-2.7503 F1000.00
G01 X-29.2482 Y-2.7415 F1000.00
G01 X-29.2543 Y-2.7312 F1000.00
G01 X-29.2617 Y-2.7217 F1000.00
G01 X-29.5124 Y-2.4474 F1000.00
G01 X-29.5143 Y-2.4446 F1000.00
G01 X-29.5138 Y-2.4434 F1000.00
G01 X-29.5127 Y-2.4430 F1000.00
G01 X-29.5119 Y-2.4433 F1000.00
G01 X-29.5099 Y-2.4452 F1000.00
G01 X-29.1068 Y-2.8861 F1000.00
M5
G00 X-29.1081 Y-4.1019
G01 F60.00
M03 S_POWER_.0
G01 F1000.00
G01 X-29.1085 Y-4.0921 F1000.00
G01 X-29.1100 Y-4.0824 F1000.00
G01 X-29.1124 Y-4.0729 F1000.00
G01 X-29.1148 Y-4.0659 F1000.00
G01 X-29.1187 Y-4.0569 F1000.00
G01 X-29.1223 Y-4.0505 F1000.00
G01 X-29.1277 Y-4.0423 F1000.00
G01 X-29.1340 Y-4.0347 F1000.00
G01 X-29.1391 Y-4.0295 F1000.00
G01 X-29.1465 Y-4.0231 F1000.00
G01 X-29.1546 Y-4.0174 F1000.00
G01 X-29.1609 Y-4.0137 F1000.00
G01 X-29.1675 Y-4.0105 F1000.00
G01 X-29.1767 Y-4.0069 F1000.00
G01 X-29.1861 Y-4.0043 F1000.00
G01 X-29.1958 Y-4.0027 F1000.00
G01 X-29.2081 Y-4.0019 F1000.00
G01 X-29.4111 Y-4.0019 F1000.00
G01 X-29.4185 Y-4.0022 F1000.00
G01 X-29.4258 Y-4.0030 F1000.00
G01 X-29.4354 Y-4.0049 F1000.00
G01 X-29.4471 Y-4.0086 F1000.00
G01 X-29.4583 Y-4.0137 F1000.00
G01 X-29.4667 Y-4.0188 F1000.00
G01 X-29.4765 Y-4.0262 F1000.00
G01 X-29.4836 Y-4.0329 F1000.00
G01 X-29.4915 Y-4.0423 F1000.00
G01 X-29.4969 Y-4.0505 F1000.00
G01 X-29.5026 Y-4.0614 F1000.00
G01 X-29.5068 Y-4.0729 F1000.00
G01 X-29.5087 Y-4.0800 F1000.00
G01 X-29.5101 Y-4.0872 F1000.00
G01 X-29.5111 Y-4.0994 F1000.00
G01 X-29.5113 Y-4.8895 F1000.00
G01 X-29.5131 Y-4.8921 F1000.00
G01 X-29.7151 Y-5.1127 F1000.00
G01 X-29.7186 Y-5.1132 F1000.00
G01 X-30.1229 Y-5.1129 F1000.00
G01 X-30.1254 Y-5.1107 F1000.00
G01 X-30.3269 Y-4.8901 F1000.00
G01 X-30.3273 Y-4.8869 F1000.00
G01 X-30.3271 Y-4.2222 F1000.00
G01 X-30.3253 Y-4.2197 F1000.00
G01 X-30.1233 Y-3.9990 F1000.00
G01 X-30.1217 Y-3.9989 F1000.00
G01 X-30.1209 Y-4.0000 F1000.00
G01 X-30.1211 Y-4.0010 F1000.00
G01 X-30.1228 Y-4.0032 F1000.00
G01 X-30.3008 Y-4.1980 F1000.00
G01 X-30.3077 Y-4.2073 F1000.00
G01 X-30.3134 Y-4.2173 F1000.00
G01 X-30.3180 Y-4.2279 F1000.00
G01 X-30.3218 Y-4.2413 F1000.00
G01 X-30.3235 Y-4.2527 F1000.00
G01 X-30.3239 Y-4.2620 F1000.00
G01 X-30.3239 Y-4.8498 F1000.00
G01 X-30.3237 Y-4.8567 F1000.00
G01 X-30.3226 Y-4.8659 F1000.00
G01 X-30.3213 Y-4.8727 F1000.00
G01 X-30.3187 Y-4.8816 F1000.00
G01 X-30.3154 Y-4.8903 F1000.00
G01 X-30.3113 Y-4.8985 F1000.00
G01 X-30.3051 Y-4.9083 F1000.00
G01 X-30.2993 Y-4.9155 F1000.00
G01 X-30.1514 Y-5.0773 F1000.00
G01 X-30.1440 Y-5.0846 F1000.00
G01 X-30.1359 Y-5.0911 F1000.00
G01 X-30.1249 Y-5.0979 F1000.00
G01 X-30.1155 Y-5.1024 F1000.00
G01 X-30.1058 Y-5.1058 F1000.00
G01 X-30.0982 Y-5.1077 F1000.00
G01 X-30.0905 Y-5.1090 F1000.00
G01 X-30.0802 Y-5.1098 F1000.00
G01 X-29.7608 Y-5.1098 F1000.00
G01 X-29.7504 Y-5.1093 F1000.00
G01 X-29.7402 Y-5.1077 F1000.00
G01 X-29.7326 Y-5.1058 F1000.00
G01 X-29.7229 Y-5.1024 F1000.00
G01 X-29.7135 Y-5.0979 F1000.00
G01 X-29.7046 Y-5.0926 F1000.00
G01 X-29.6963 Y-5.0863 F1000.00
G01 X-29.6906 Y-5.0811 F1000.00
G01 X-29.5376 Y-4.9138 F1000.00
G01 X-29.5307 Y-4.9045 F1000.00
G01 X-29.5250 Y-4.8944 F1000.00
G01 X-29.5204 Y-4.8838 F1000.00
G01 X-29.5166 Y-4.8705 F1000.00
G01 X-29.5149 Y-4.8590 F1000.00
G01 X-29.5145 Y-4.8498 F1000.00
G01 X-29.5145 Y-4.0027 F1000.00
G01 X-29.5141 Y-3.9995 F1000.00
G01 X-29.5131 Y-3.9987 F1000.00
G01 X-29.5103 Y-3.9986 F1000.00
G01 X-29.1061 Y-3.9987 F1000.00
G01 X-29.1049 Y-3.9998 F1000.00
G01 X-29.1047 Y-4.0027 F1000.00
G01 X-29.1047 Y-5.1090 F1000.00
G01 X-29.1049 Y-5.1118 F1000.00
G01 X-29.1055 Y-5.1128 F1000.00
G01 X-29.1067 Y-5.1130 F1000.00
G01 X-29.1077 Y-5.1124 F1000.00
G01 X-29.1081 Y-5.1090 F1000.00
G01 X-29.1081 Y-4.1019 F1000.00
M5
G00 X-30.1501 Y-5.7503
G01 F60.00
M03 S_POWER_.0
G01 F1000.00
G01 X-29.2719 Y-6.7109 F1000.00
G01 X-29.2642 Y-6.7205 F1000.00
G01 X-29.2601 Y-6.7267 F1000.00
G01 X-29.2565 Y-6.7332 F1000.00
G01 X-29.2516 Y-6.7445 F1000.00
G01 X-29.2482 Y-6.7563 F1000.00
G01 X-29.2462 Y-6.7685 F1000.00
G01 X-29.2458 Y-6.7759 F1000.00
G01 X-29.2459 Y-6.7833 F1000.00
G01 X-29.2472 Y-6.7956 F1000.00
G01 X-29.2501 Y-6.8076 F1000.00
G01 X-29.2544 Y-6.8191 F1000.00
G01 X-29.2601 Y-6.8301 F1000.00
G01 X-29.2671 Y-6.8402 F1000.00
G01 X-29.2824 Y-6.8572 F1000.00
G01 X-29.2919 Y-6.8660 F1000.00
G01 X-29.3026 Y-6.8734 F1000.00
G01 X-29.3141 Y-6.8794 F1000.00
G01 X-29.3238 Y-6.8830 F1000.00
G01 X-29.3363 Y-6.8862 F1000.00
G01 X-29.3466 Y-6.8875 F1000.00
G01 X-29.3544 Y-6.8878 F1000.00
G01 X-30.0802 Y-6.8878 F1000.00
G01 X-30.0905 Y-6.8870 F1000.00
G01 X-30.1007 Y-6.8851 F1000.00
G01 X-30.1107 Y-6.8822 F1000.00
G01 X-30.1179 Y-6.8794 F1000.00
G01 X-30.1272 Y-6.8747 F1000.00
G01 X-30.1359 Y-6.8691 F1000.00
G01 X-30.1440 Y-6.8626 F1000.00
G01 X-30.1514 Y-6.8553 F1000.00
G01 X-30.3023 Y-6.6900 F1000.00
G01 X-30.3101 Y-6.6785 F1000.00
G01 X-30.3154 Y-6.6683 F1000.00
G01 X-30.3201 Y-6.6552 F1000.00
G01 X-30.3226 Y-6.6439 F1000.00
G01 X-30.3237 Y-6.6347 F1000.00
G01 X-30.3239 Y-6.6278 F1000.00
G01 X-30.3238 Y-5.8128 F1000.00
G01 X-30.3224 Y-5.8004 F1000.00
G01 X-30.3208 Y-5.7931 F1000.00
G01 X-30.3187 Y-5.7859 F1000.00
G01 X-30.3160 Y-5.7789 F1000.00
G01 X-30.3129 Y-5.7721 F1000.00
G01 X-30.3065 Y-5.7613 F1000.00
G01 X-30.3020 Y-5.7553 F1000.00
G01 X-30.2971 Y-5.7496 F1000.00
G01 X-30.2880 Y-5.7410 F1000.00
G01 X-30.2821 Y-5.7365 F1000.00
G01 X-30.2758 Y-5.7323 F1000.00
G01 X-30.2648 Y-5.7265 F1000.00
G01 X-30.2578 Y-5.7237 F1000.00
G01 X-30.2507 Y-5.7215 F1000.00
G01 X-30.2434 Y-5.7197 F1000.00
G01 X-30.2359 Y-5.7185 F1000.00
G01 X-30.2285 Y-5.7179 F1000.00
G01 X-30.2210 Y-5.7179 F1000.00
G01 X-30.2085 Y-5.7190 F1000.00
G01 X-30.1963 Y-5.7217 F1000.00
G01 X-30.1892 Y-5.7241 F1000.00
G01 X-30.1823 Y-5.7269 F1000.00
G01 X-30.1713 Y-5.7328 F1000.00
G01 X-30.1650 Y-5.7370 F1000.00
G01 X-30.1591 Y-5.7417 F1000.00
G01 X-30.1501 Y-5.7503 F1000.00
G01 X-29.2819 Y-6.6952 F1000.00
G01 X-30.1617 Y-5.7328 F1000.00
G01 X-30.1664 Y-5.7270 F1000.00
G01 X-30.1719 Y-5.7188 F1000.00
G01 X-30.1766 Y-5.7101 F1000.00
G01 X-30.1804 Y-5.7010 F1000.00
G01 X-30.1832 Y-5.6916 F1000.00
G01 X-30.1848 Y-5.6843 F1000.00
G01 X-30.1858 Y-5.6770 F1000.00
G01 X-30.1863 Y-5.6671 F1000.00
G01 X-30.1858 Y-5.6573 F1000.00
G01 X-30.1843 Y-5.6475 F1000.00
G01 X-30.1819 Y-5.6379 F1000.00
G01 X-30.1776 Y-5.6264 F1000.00
G01 X-30.1731 Y-5.6176 F1000.00
G01 X-30.1678 Y-5.6092 F1000.00
G01 X-30.1617 Y-5.6015 F1000.00
G01 X-30.1514 Y-5.5902 F1000.00
G01 X-30.1440 Y-5.5829 F1000.00
G01 X-30.1380 Y-5.5780 F1000.00
G01 X-30.1294 Y-5.5721 F1000.00
G01 X-30.1203 Y-5.5672 F1000.00
G01 X-30.1131 Y-5.5642 F1000.00
G01 X-30.1033 Y-5.5610 F1000.00
G01 X-30.0957 Y-5.5593 F1000.00
G01 X-30.0854 Y-5.5580 F1000.00
G01 X-30.0776 Y-5.5577 F1000.00
G01 X-29.3492 Y-5.5578 F1000.00
G01 X-29.3389 Y-5.5589 F1000.00
G01 X-29.3287 Y-5.5610 F1000.00
G01 X-29.3189 Y-5.5642 F1000.00
G01 X-29.3117 Y-5.5672 F1000.00
G01 X-29.3026 Y-5.5721 F1000.00
G01 X-29.2940 Y-5.5780 F1000.00
G01 X-29.2880 Y-5.5829 F1000.00
G01 X-29.2806 Y-5.5902 F1000.00
G01 X-29.1297 Y-5.7555 F1000.00
G01 X-29.1219 Y-5.7670 F1000.00
G01 X-29.1166 Y-5.7772 F1000.00
G01 X-29.1119 Y-5.7903 F1000.00
G01 X-29.1094 Y-5.8016 F1000.00
G01 X-29.1083 Y-5.8108 F1000.00
G01 X-29.1081 Y-5.8177 F1000.00
G01 X-29.1081 Y-6.6277 F1000.00
G01 X-29.1083 Y-6.6352 F1000.00
G01 X-29.1092 Y-6.6426 F1000.00
G01 X-29.1106 Y-6.6500 F1000.00
G01 X-29.1125 Y-6.6572 F1000.00
G01 X-29.1150 Y-6.6643 F1000.00
G01 X-29.1180 Y-6.6712 F1000.00
G01 X-29.1215 Y-6.6778 F1000.00
G01 X-29.1255 Y-6.6842 F1000.00
G01 X-29.1300 Y-6.6902 F1000.00
G01 X-29.1349 Y-6.6959 F1000.00
G01 X-29.1402 Y-6.7012 F1000.00
G01 X-29.1459 Y-6.7060 F1000.00
G01 X-29.1520 Y-6.7105 F1000.00
G01 X-29.1583 Y-6.7144 F1000.00
G01 X-29.1650 Y-6.7179 F1000.00
G01 X-29.1719 Y-6.7209 F1000.00
G01 X-29.1789 Y-6.7233 F1000.00
G01 X-29.1862 Y-6.7253 F1000.00
G01 X-29.1936 Y-6.7266 F1000.00
G01 X-29.2010 Y-6.7274 F1000.00
G01 X-29.2085 Y-6.7277 F1000.00
G01 X-29.2160 Y-6.7274 F1000.00
G01 X-29.2235 Y-6.7265 F1000.00
G01 X-29.2308 Y-6.7250 F1000.00
G01 X-29.2381 Y-6.7231 F1000.00
G01 X-29.2451 Y-6.7205 F1000.00
G01 X-29.2520 Y-6.7175 F1000.00
G01 X-29.2586 Y-6.7140 F1000.00
G01 X-29.2649 Y-6.7099 F1000.00
G01 X-29.2709 Y-6.7054 F1000.00
G01 X-29.2766 Y-6.7005 F1000.00
G01 X-29.2819 Y-6.6952 F1000.00
M5
G00 X-30.2879 Y-5.7346
G01 F60.00
M03 S_POWER_.0
G01 F1000.00
G01 X-30.2816 Y-5.7270 F1000.00
G01 X-30.2749 Y-5.7167 F1000.00
G01 X-30.2694 Y-5.7056 F1000.00
G01 X-30.2654 Y-5.6939 F1000.00
G01 X-30.2632 Y-5.6843 F1000.00
G01 X-30.2619 Y-5.6721 F1000.00
G01 X-30.2620 Y-5.6597 F1000.00
G01 X-30.2637 Y-5.6475 F1000.00
G01 X-30.2661 Y-5.6379 F1000.00
G01 X-30.2694 Y-5.6286 F1000.00
G01 X-30.2737 Y-5.6197 F1000.00
G01 X-30.2788 Y-5.6113 F1000.00
G01 X-30.2863 Y-5.6015 F1000.00
G01 X-30.3252 Y-5.5589 F1000.00
G01 X-30.3271 Y-5.5562 F1000.00
G01 X-30.3268 Y-5.5551 F1000.00
G01 X-30.3260 Y-5.5545 F1000.00
G01 X-30.3247 Y-5.5548 F1000.00
G01 X-30.3227 Y-5.5567 F1000.00
G01 X-30.2927 Y-5.5892 F1000.00
G01 X-30.2853 Y-5.5955 F1000.00
G01 X-30.2752 Y-5.6024 F1000.00
G01 X-30.2687 Y-5.6059 F1000.00
G01 X-30.2621 Y-5.6089 F1000.00
G01 X-30.2505 Y-5.6129 F1000.00
G01 X-30.2386 Y-5.6154 F1000.00
G01 X-30.2313 Y-5.6162 F1000.00
G01 X-30.2240 Y-5.6165 F1000.00
G01 X-30.2167 Y-5.6162 F1000.00
G01 X-30.2094 Y-5.6154 F1000.00
G01 X-30.1975 Y-5.6129 F1000.00
G01 X-30.1859 Y-5.6089 F1000.00
G01 X-30.1793 Y-5.6059 F1000.00
G01 X-30.1728 Y-5.6024 F1000.00
G01 X-30.1627 Y-5.5955 F1000.00
G01 X-30.1553 Y-5.5892 F1000.00
G01 X-30.1253 Y-5.5567 F1000.00
G01 X-30.1233 Y-5.5547 F1000.00
G01 X-30.1223 Y-5.5544 F1000.00
G01 X-29.3122 Y-5.5543 F1000.00
G01 X-29.3086 Y-5.5549 F1000.00
G01 X-29.1067 Y-5.7754 F1000.00
G01 X-29.1049 Y-5.7780 F1000.00
G01 X-29.1049 Y-6.6674 F1000.00
G01 X-29.1067 Y-6.6701 F1000.00
G01 X-29.1457 Y-6.7127 F1000.00
G01 X-29.1504 Y-6.7185 F1000.00
G01 X-29.1559 Y-6.7267 F1000.00
G01 X-29.1616 Y-6.7376 F1000.00
G01 X-29.1644 Y-6.7445 F1000.00
G01 X-29.1666 Y-6.7516 F1000.00
G01 X-29.1692 Y-6.7636 F1000.00
G01 X-29.1700 Y-6.7710 F1000.00
G01 X-29.1703 Y-6.7784 F1000.00
G01 X-29.1695 Y-6.7907 F1000.00
G01 X-29.1672 Y-6.8028 F1000.00
G01 X-29.1652 Y-6.8099 F1000.00
G01 X-29.1626 Y-6.8169 F1000.00
G01 X-29.1571 Y-6.8279 F1000.00
G01 X-29.1518 Y-6.8363 F1000.00
G01 X-29.1473 Y-6.8421 F1000.00
G01 X-29.1068 Y-6.8866 F1000.00
G01 X-29.1050 Y-6.8890 F1000.00
G01 X-29.1053 Y-6.8905 F1000.00
G01 X-29.1062 Y-6.8910 F1000.00
G01 X-29.1070 Y-6.8909 F1000.00
G01 X-29.1093 Y-6.8888 F1000.00
G01 X-29.1342 Y-6.8615 F1000.00
G01 X-29.1411 Y-6.8547 F1000.00
G01 X-29.1487 Y-6.8485 F1000.00
G01 X-29.1568 Y-6.8431 F1000.00
G01 X-29.1633 Y-6.8396 F1000.00
G01 X-29.1699 Y-6.8366 F1000.00
G01 X-29.1815 Y-6.8326 F1000.00
G01 X-29.1934 Y-6.8301 F1000.00
G01 X-29.2007 Y-6.8293 F1000.00
G01 X-29.2080 Y-6.8290 F1000.00
G01 X-29.2153 Y-6.8293 F1000.00
G01 X-29.2226 Y-6.8301 F1000.00
G01 X-29.2345 Y-6.8326 F1000.00
G01 X-29.2461 Y-6.8366 F1000.00
G01 X-29.2527 Y-6.8396 F1000.00
G01 X-29.2592 Y-6.8431 F1000.00
G01 X-29.2693 Y-6.8500 F1000.00
G01 X-29.2767 Y-6.8563 F1000.00
G01 X-29.3066 Y-6.8887 F1000.00
G01 X-29.3094 Y-6.8910 F1000.00
G01 X-30.1198 Y-6.8912 F1000.00
G01 X-30.1234 Y-6.8906 F1000.00
G01 X-30.3253 Y-6.6701 F1000.00
G01 X-30.3271 Y-6.6675 F1000.00
G01 X-30.3273 Y-5.7806 F1000.00
G01 X-30.3270 Y-5.7777 F1000.00
G01 X-30.3253 Y-5.7754 F1000.00
G01 X-30.2879 Y-5.7346 F1000.00
M5
G00 X-30.3259 Y-8.6660
G01 F60.00
M03 S_POWER_.0
G01 F1000.00
G01 X-30.3165 Y-8.6631 F1000.00
G01 X-30.3096 Y-8.6604 F1000.00
G01 X-30.3030 Y-8.6572 F1000.00
G01 X-30.2946 Y-8.6521 F1000.00
G01 X-30.2886 Y-8.6478 F1000.00
G01 X-30.2830 Y-8.6430 F1000.00
G01 X-30.2760 Y-8.6361 F1000.00
G01 X-30.2713 Y-8.6304 F1000.00
G01 X-30.2670 Y-8.6244 F1000.00
G01 X-30.2631 Y-8.6181 F1000.00
G01 X-30.2587 Y-8.6093 F1000.00
G01 X-30.2560 Y-8.6025 F1000.00
G01 X-30.2538 Y-8.5955 F1000.00
G01 X-30.2516 Y-8.5859 F1000.00
G01 X-30.2507 Y-8.5785 F1000.00
G01 X-30.2502 Y-8.5687 F1000.00
G01 X-30.2505 Y-8.5613 F1000.00
G01 X-30.2513 Y-8.5540 F1000.00
G01 X-30.2527 Y-8.5468 F1000.00
G01 X-30.2546 Y-8.5396 F1000.00
G01 X-30.2570 Y-8.5327 F1000.00
G01 X-30.2600 Y-8.5259 F1000.00
G01 X-30.2659 Y-8.5152 F1000.00
G01 X-30.2701 Y-8.5091 F1000.00
G01 X-30.2748 Y-8.5034 F1000.00
G01 X-30.3253 Y-8.4481 F1000.00
G01 X-30.3271 Y-8.4454 F1000.00
G01 X-30.3273 Y-7.5586 F1000.00
G01 X-30.3269 Y-7.5554 F1000.00
G01 X-30.1254 Y-7.3348 F1000.00
G01 X-30.1229 Y-7.3326 F1000.00
G01 X-29.5153 Y-7.3323 F1000.00
G01 X-29.5119 Y-7.3327 F1000.00
G01 X-29.5113 Y-7.3340 F1000.00
G01 X-29.5118 Y-7.3352 F1000.00
G01 X-29.5153 Y-7.3357 F1000.00
G01 X-30.0776 Y-7.3357 F1000.00
G01 X-30.0905 Y-7.3365 F1000.00
G01 X-30.1033 Y-7.3390 F1000.00
G01 X-30.1155 Y-7.3431 F1000.00
G01 X-30.1272 Y-7.3488 F1000.00
G01 X-30.1380 Y-7.3560 F1000.00
G01 X-30.1478 Y-7.3644 F1000.00
G01 X-30.2978 Y-7.5282 F1000.00
G01 X-30.3037 Y-7.5353 F1000.00
G01 X-30.3077 Y-7.5410 F1000.00
G01 X-30.3124 Y-7.5490 F1000.00
G01 X-30.3180 Y-7.5617 F1000.00
G01 X-30.3207 Y-7.5705 F1000.00
G01 X-30.3222 Y-7.5773 F1000.00
G01 X-30.3235 Y-7.5865 F1000.00
G01 X-30.3239 Y-7.5934 F1000.00
G01 X-30.3239 Y-8.4058 F1000.00
G01 X-30.3237 Y-8.4127 F1000.00
G01 X-30.3226 Y-8.4219 F1000.00
G01 X-30.3207 Y-8.4310 F1000.00
G01 X-30.3180 Y-8.4398 F1000.00
G01 X-30.3144 Y-8.4484 F1000.00
G01 X-30.3113 Y-8.4545 F1000.00
G01 X-30.3064 Y-8.4624 F1000.00
G01 X-30.3008 Y-8.4698 F1000.00
G01 X-30.1478 Y-8.6371 F1000.00
G01 X-30.1380 Y-8.6455 F1000.00
G01 X-30.1294 Y-8.6514 F1000.00
G01 X-30.1179 Y-8.6574 F1000.00
G01 X-30.1082 Y-8.6610 F1000.00
G01 X-30.1007 Y-8.6631 F1000.00
G01 X-30.0931 Y-8.6646 F1000.00
G01 X-30.0854 Y-8.6655 F1000.00
G01 X-30.0776 Y-8.6658 F1000.00
G01 X-29.5153 Y-8.6658 F1000.00
G01 X-29.5119 Y-8.6662 F1000.00
G01 X-29.5113 Y-8.6672 F1000.00
G01 X-29.5115 Y-8.6684 F1000.00
G01 X-29.5125 Y-8.6690 F1000.00
G01 X-29.5153 Y-8.6692 F1000.00
G01 X-30.3231 Y-8.6692 F1000.00
G01 X-30.3259 Y-8.6690 F1000.00
G01 X-30.3268 Y-8.6685 F1000.00
G01 X-30.3270 Y-8.6669 F1000.00
G01 X-30.3259 Y-8.6660 F1000.00
M5
G00 X-29.1067 Y-11.4417
G01 F60.00
M03 S_POWER_.0
G01 F1000.00
G01 X-29.1050 Y-11.4439 F1000.00
G01 X-29.1047 Y-11.4468 F1000.00
G01 X-29.1047 Y-12.1089 F1000.00
G01 X-29.1050 Y-12.1119 F1000.00
G01 X-29.3088 Y-12.3348 F1000.00
G01 X-29.3122 Y-12.3352 F1000.00
G01 X-29.5131 Y-12.3350 F1000.00
G01 X-29.5158 Y-12.3327 F1000.00
G01 X-29.7157 Y-12.1141 F1000.00
G01 X-29.7175 Y-12.1117 F1000.00
G01 X-29.7177 Y-11.4817 F1000.00
G01 X-29.7183 Y-11.4724 F1000.00
G01 X-29.7194 Y-11.4656 F1000.00
G01 X-29.7229 Y-11.4521 F1000.00
G01 X-29.7282 Y-11.4393 F1000.00
G01 X-29.7315 Y-11.4332 F1000.00
G01 X-29.7366 Y-11.4255 F1000.00
G01 X-29.7438 Y-11.4165 F1000.00
G01 X-29.8938 Y-11.2527 F1000.00
G01 X-29.9036 Y-11.2442 F1000.00
G01 X-29.9122 Y-11.2384 F1000.00
G01 X-29.9237 Y-11.2324 F1000.00
G01 X-29.9334 Y-11.2287 F1000.00
G01 X-29.9409 Y-11.2266 F1000.00
G01 X-29.9485 Y-11.2251 F1000.00
G01 X-29.9614 Y-11.2239 F1000.00
G01 X-30.2289 Y-11.2240 F1000.00
G01 X-30.2362 Y-11.2247 F1000.00
G01 X-30.2435 Y-11.2258 F1000.00
G01 X-30.2506 Y-11.2275 F1000.00
G01 X-30.2576 Y-11.2297 F1000.00
G01 X-30.2645 Y-11.2325 F1000.00
G01 X-30.2711 Y-11.2357 F1000.00
G01 X-30.2774 Y-11.2394 F1000.00
G01 X-30.2835 Y-11.2436 F1000.00
G01 X-30.2929 Y-11.2515 F1000.00
G01 X-30.2997 Y-11.2586 F1000.00
G01 X-30.3057 Y-11.2663 F1000.00
G01 X-30.3121 Y-11.2768 F1000.00
G01 X-30.3172 Y-11.2879 F1000.00
G01 X-30.3203 Y-11.2972 F1000.00
G01 X-30.3229 Y-11.3092 F1000.00
G01 X-30.3238 Y-11.3190 F1000.00
G01 X-30.3239 Y-12.3310 F1000.00
G01 X-30.3244 Y-12.3345 F1000.00
G01 X-30.3256 Y-12.3350 F1000.00
G01 X-30.3269 Y-12.3344 F1000.00
G01 X-30.3273 Y-12.3310 F1000.00
G01 X-30.3273 Y-11.2247 F1000.00
G01 X-30.3271 Y-11.2220 F1000.00
G01 X-30.3265 Y-11.2210 F1000.00
G01 X-30.3231 Y-11.2206 F1000.00
G01 X-29.9187 Y-11.2208 F1000.00
G01 X-29.9162 Y-11.2231 F1000.00
G01 X-29.7148 Y-11.4436 F1000.00
G01 X-29.7143 Y-11.4468 F1000.00
G01 X-29.7143 Y-12.0718 F1000.00
G01 X-29.7134 Y-12.0856 F1000.00
G01 X-29.7111 Y-12.0970 F1000.00
G01 X-29.7076 Y-12.1080 F1000.00
G01 X-29.7038 Y-12.1164 F1000.00
G01 X-29.6981 Y-12.1265 F1000.00
G01 X-29.6912 Y-12.1358 F1000.00
G01 X-29.5400 Y-12.3012 F1000.00
G01 X-29.5344 Y-12.3066 F1000.00
G01 X-29.5284 Y-12.3115 F1000.00
G01 X-29.5220 Y-12.3160 F1000.00
G01 X-29.5153 Y-12.3199 F1000.00
G01 X-29.5083 Y-12.3234 F1000.00
G01 X-29.5011 Y-12.3262 F1000.00
G01 X-29.4937 Y-12.3285 F1000.00
G01 X-29.4861 Y-12.3302 F1000.00
G01 X-29.4758 Y-12.3315 F1000.00
G01 X-29.4680 Y-12.3318 F1000.00
G01 X-29.3544 Y-12.3318 F1000.00
G01 X-29.3466 Y-12.3315 F1000.00
G01 X-29.3338 Y-12.3297 F1000.00
G01 X-29.3213 Y-12.3262 F1000.00
G01 X-29.3117 Y-12.3223 F1000.00
G01 X-29.3004 Y-12.3160 F1000.00
G01 X-29.2919 Y-12.3100 F1000.00
G01 X-29.2824 Y-12.3012 F1000.00
G01 X-29.1312 Y-12.1358 F1000.00
G01 X-29.1231 Y-12.1245 F1000.00
G01 X-29.1176 Y-12.1144 F1000.00
G01 X-29.1125 Y-12.1014 F1000.00
G01 X-29.1094 Y-12.0879 F1000.00
G01 X-29.1083 Y-12.0787 F1000.00
G01 X-29.1081 Y-12.0718 F1000.00
G01 X-29.1081 Y-11.4840 F1000.00
G01 X-29.1087 Y-11.4724 F1000.00
G01 X-29.1107 Y-11.4610 F1000.00
G01 X-29.1140 Y-11.4499 F1000.00
G01 X-29.1186 Y-11.4393 F1000.00
G01 X-29.1243 Y-11.4293 F1000.00
G01 X-29.1312 Y-11.4200 F1000.00
G01 X-29.3092 Y-11.2252 F1000.00
G01 X-29.3110 Y-11.2228 F1000.00
G01 X-29.3111 Y-11.2219 F1000.00
G01 X-29.3106 Y-11.2211 F1000.00
G01 X-29.3098 Y-11.2207 F1000.00
G01 X-29.3090 Y-11.2209 F1000.00
G01 X-29.3067 Y-11.2229 F1000.00
G01 X-29.1067 Y-11.4417 F1000.00
M5
G00 X-30.1501 Y-12.9723
G01 F60.00
M03 S_POWER_.0
G01 F1000.00
G01 X-29.2719 Y-13.9329 F1000.00
G01 X-29.2642 Y-13.9425 F1000.00
G01 X-29.2601 Y-13.9487 F1000.00
G01 X-29.2565 Y-13.9552 F1000.00
G01 X-29.2516 Y-13.9665 F1000.00
G01 X-29.2482 Y-13.9783 F1000.00
G01 X-29.2462 Y-13.9905 F1000.00
G01 X-29.2458 Y-13.9979 F1000.00
G01 X-29.2459 Y-14.0053 F1000.00
G01 X-29.2472 Y-14.0176 F1000.00
G01 X-29.2501 Y-14.0296 F1000.00
G01 X-29.2544 Y-14.0411 F1000.00
G01 X-29.2601 Y-14.0521 F1000.00
G01 X-29.2671 Y-14.0622 F1000.00
G01 X-29.2824 Y-14.0792 F1000.00
G01 X-29.2919 Y-14.0880 F1000.00
G01 X-29.3004 Y-14.0940 F1000.00
G01 X-29.3117 Y-14.1003 F1000.00
G01 X-29.3238 Y-14.1050 F1000.00
G01 X-29.3363 Y-14.1082 F1000.00
G01 X-29.3466 Y-14.1095 F1000.00
G01 X-29.3544 Y-14.1098 F1000.00
G01 X-30.0802 Y-14.1098 F1000.00
G01 X-30.0905 Y-14.1090 F1000.00
G01 X-30.1007 Y-14.1071 F1000.00
G01 X-30.1107 Y-14.1042 F1000.00
G01 X-30.1203 Y-14.1003 F1000.00
G01 X-30.1294 Y-14.0954 F1000.00
G01 X-30.1359 Y-14.0911 F1000.00
G01 X-30.1440 Y-14.0846 F1000.00
G01 X-30.1514 Y-14.0773 F1000.00
G01 X-30.3023 Y-13.9120 F1000.00
G01 X-30.3101 Y-13.9005 F1000.00
G01 X-30.3154 Y-13.8903 F1000.00
G01 X-30.3201 Y-13.8772 F1000.00
G01 X-30.3226 Y-13.8659 F1000.00
G01 X-30.3237 Y-13.8567 F1000.00
G01 X-30.3239 Y-13.8498 F1000.00
G01 X-30.3238 Y-13.0348 F1000.00
G01 X-30.3224 Y-13.0224 F1000.00
G01 X-30.3208 Y-13.0151 F1000.00
G01 X-30.3187 Y-13.0079 F1000.00
G01 X-30.3160 Y-13.0009 F1000.00
G01 X-30.3129 Y-12.9941 F1000.00
G01 X-30.3065 Y-12.9833 F1000.00
G01 X-30.2988 Y-12.9735 F1000.00
G01 X-30.2936 Y-12.9681 F1000.00
G01 X-30.2880 Y-12.9630 F1000.00
G01 X-30.2821 Y-12.9585 F1000.00
G01 X-30.2758 Y-12.9543 F1000.00
G01 X-30.2648 Y-12.9485 F1000.00
G01 X-30.2578 Y-12.9457 F1000.00
G01 X-30.2507 Y-12.9435 F1000.00
G01 X-30.2434 Y-12.9417 F1000.00
G01 X-30.2359 Y-12.9405 F1000.00
G01 X-30.2235 Y-12.9398 F1000.00
G01 X-30.2160 Y-12.9401 F1000.00
G01 X-30.2085 Y-12.9410 F1000.00
G01 X-30.1963 Y-12.9437 F1000.00
G01 X-30.1892 Y-12.9461 F1000.00
G01 X-30.1823 Y-12.9489 F1000.00
G01 X-30.1713 Y-12.9548 F1000.00
G01 X-30.1650 Y-12.9590 F1000.00
G01 X-30.1591 Y-12.9637 F1000.00
G01 X-30.1501 Y-12.9723 F1000.00
G01 X-29.2819 Y-13.9172 F1000.00
G01 X-30.1617 Y-12.9548 F1000.00
G01 X-30.1664 Y-12.9490 F1000.00
G01 X-30.1719 Y-12.9408 F1000.00
G01 X-30.1766 Y-12.9321 F1000.00
G01 X-30.1795 Y-12.9253 F1000.00
G01 X-30.1826 Y-12.9159 F1000.00
G01 X-30.1843 Y-12.9087 F1000.00
G01 X-30.1858 Y-12.8990 F1000.00
G01 X-30.1863 Y-12.8891 F1000.00
G01 X-30.1858 Y-12.8793 F1000.00
G01 X-30.1843 Y-12.8695 F1000.00
G01 X-30.1819 Y-12.8599 F1000.00
G01 X-30.1776 Y-12.8484 F1000.00
G01 X-30.1731 Y-12.8396 F1000.00
G01 X-30.1678 Y-12.8312 F1000.00
G01 X-30.1617 Y-12.8235 F1000.00
G01 X-30.1514 Y-12.8122 F1000.00
G01 X-30.1440 Y-12.8049 F1000.00
G01 X-30.1380 Y-12.8000 F1000.00
G01 X-30.1316 Y-12.7955 F1000.00
G01 X-30.1226 Y-12.7904 F1000.00
G01 X-30.1155 Y-12.7871 F1000.00
G01 X-30.1058 Y-12.7837 F1000.00
G01 X-30.0957 Y-12.7813 F1000.00
G01 X-30.0854 Y-12.7800 F1000.00
G01 X-30.0776 Y-12.7797 F1000.00
G01 X-29.3492 Y-12.7798 F1000.00
G01 X-29.3389 Y-12.7809 F1000.00
G01 X-29.3287 Y-12.7830 F1000.00
G01 X-29.3189 Y-12.7862 F1000.00
G01 X-29.3117 Y-12.7892 F1000.00
G01 X-29.3026 Y-12.7941 F1000.00
G01 X-29.2961 Y-12.7984 F1000.00
G01 X-29.2880 Y-12.8049 F1000.00
G01 X-29.2806 Y-12.8122 F1000.00
G01 X-29.1297 Y-12.9775 F1000.00
G01 X-29.1219 Y-12.9890 F1000.00
G01 X-29.1166 Y-12.9992 F1000.00
G01 X-29.1119 Y-13.0123 F1000.00
G01 X-29.1094 Y-13.0236 F1000.00
G01 X-29.1083 Y-13.0328 F1000.00
G01 X-29.1081 Y-13.0397 F1000.00
G01 X-29.1081 Y-13.8497 F1000.00
G01 X-29.1083 Y-13.8572 F1000.00
G01 X-29.1092 Y-13.8646 F1000.00
G01 X-29.1106 Y-13.8720 F1000.00
G01 X-29.1125 Y-13.8792 F1000.00
G01 X-29.1150 Y-13.8863 F1000.00
G01 X-29.1180 Y-13.8932 F1000.00
G01 X-29.1215 Y-13.8998 F1000.00
G01 X-29.1255 Y-13.9062 F1000.00
G01 X-29.1300 Y-13.9122 F1000.00
G01 X-29.1349 Y-13.9179 F1000.00
G01 X-29.1402 Y-13.9232 F1000.00
G01 X-29.1459 Y-13.9280 F1000.00
G01 X-29.1520 Y-13.9325 F1000.00
G01 X-29.1583 Y-13.9364 F1000.00
G01 X-29.1650 Y-13.9399 F1000.00
G01 X-29.1719 Y-13.9429 F1000.00
G01 X-29.1789 Y-13.9453 F1000.00
G01 X-29.1862 Y-13.9473 F1000.00
G01 X-29.1936 Y-13.9486 F1000.00
G01 X-29.2010 Y-13.9494 F1000.00
G01 X-29.2085 Y-13.9497 F1000.00
G01 X-29.2160 Y-13.9494 F1000.00
G01 X-29.2235 Y-13.9485 F1000.00
G01 X-29.2308 Y-13.9470 F1000.00
G01 X-29.2381 Y-13.9451 F1000.00
G01 X-29.2451 Y-13.9425 F1000.00
G01 X-29.2520 Y-13.9395 F1000.00
G01 X-29.2586 Y-13.9360 F1000.00
G01 X-29.2649 Y-13.9319 F1000.00
G01 X-29.2709 Y-13.9274 F1000.00
G01 X-29.2766 Y-13.9225 F1000.00
G01 X-29.2819 Y-13.9172 F1000.00
M5
G00 X-30.2879 Y-12.9566
G01 F60.00
M03 S_POWER_.0
G01 F1000.00
G01 X-30.2816 Y-12.9490 F1000.00
G01 X-30.2749 Y-12.9387 F1000.00
G01 X-30.2694 Y-12.9276 F1000.00
G01 X-30.2654 Y-12.9159 F1000.00
G01 X-30.2632 Y-12.9063 F1000.00
G01 X-30.2619 Y-12.8941 F1000.00
G01 X-30.2620 Y-12.8817 F1000.00
G01 X-30.2637 Y-12.8695 F1000.00
G01 X-30.2661 Y-12.8599 F1000.00
G01 X-30.2694 Y-12.8506 F1000.00
G01 X-30.2737 Y-12.8417 F1000.00
G01 X-30.2788 Y-12.8333 F1000.00
G01 X-30.2863 Y-12.8235 F1000.00
G01 X-30.3252 Y-12.7809 F1000.00
G01 X-30.3271 Y-12.7782 F1000.00
G01 X-30.3268 Y-12.7771 F1000.00
G01 X-30.3260 Y-12.7765 F1000.00
G01 X-30.3247 Y-12.7768 F1000.00
G01 X-30.3227 Y-12.7787 F1000.00
G01 X-30.2927 Y-12.8112 F1000.00
G01 X-30.2853 Y-12.8175 F1000.00
G01 X-30.2752 Y-12.8244 F1000.00
G01 X-30.2687 Y-12.8279 F1000.00
G01 X-30.2621 Y-12.8309 F1000.00
G01 X-30.2505 Y-12.8349 F1000.00
G01 X-30.2386 Y-12.8374 F1000.00
G01 X-30.2313 Y-12.8382 F1000.00
G01 X-30.2240 Y-12.8385 F1000.00
G01 X-30.2167 Y-12.8382 F1000.00
G01 X-30.2094 Y-12.8374 F1000.00
G01 X-30.1975 Y-12.8349 F1000.00
G01 X-30.1859 Y-12.8309 F1000.00
G01 X-30.1793 Y-12.8279 F1000.00
G01 X-30.1728 Y-12.8244 F1000.00
G01 X-30.1627 Y-12.8175 F1000.00
G01 X-30.1553 Y-12.8112 F1000.00
G01 X-30.1253 Y-12.7787 F1000.00
G01 X-30.1233 Y-12.7767 F1000.00
G01 X-30.1223 Y-12.7764 F1000.00
G01 X-29.3122 Y-12.7763 F1000.00
G01 X-29.3086 Y-12.7769 F1000.00
G01 X-29.1067 Y-12.9974 F1000.00
G01 X-29.1049 Y-13.0000 F1000.00
G01 X-29.1049 Y-13.8894 F1000.00
G01 X-29.1067 Y-13.8921 F1000.00
G01 X-29.1457 Y-13.9347 F1000.00
G01 X-29.1504 Y-13.9405 F1000.00
G01 X-29.1559 Y-13.9487 F1000.00
G01 X-29.1616 Y-13.9596 F1000.00
G01 X-29.1644 Y-13.9665 F1000.00
G01 X-29.1666 Y-13.9736 F1000.00
G01 X-29.1692 Y-13.9856 F1000.00
G01 X-29.1700 Y-13.9930 F1000.00
G01 X-29.1703 Y-14.0004 F1000.00
G01 X-29.1695 Y-14.0127 F1000.00
G01 X-29.1672 Y-14.0248 F1000.00
G01 X-29.1652 Y-14.0319 F1000.00
G01 X-29.1626 Y-14.0389 F1000.00
G01 X-29.1571 Y-14.0499 F1000.00
G01 X-29.1518 Y-14.0583 F1000.00
G01 X-29.1473 Y-14.0641 F1000.00
G01 X-29.1068 Y-14.1086 F1000.00
G01 X-29.1050 Y-14.1110 F1000.00
G01 X-29.1053 Y-14.1125 F1000.00
G01 X-29.1060 Y-14.1130 F1000.00
G01 X-29.1070 Y-14.1129 F1000.00
G01 X-29.1093 Y-14.1108 F1000.00
G01 X-29.1342 Y-14.0835 F1000.00
G01 X-29.1411 Y-14.0767 F1000.00
G01 X-29.1487 Y-14.0705 F1000.00
G01 X-29.1568 Y-14.0651 F1000.00
G01 X-29.1633 Y-14.0616 F1000.00
G01 X-29.1699 Y-14.0586 F1000.00
G01 X-29.1815 Y-14.0546 F1000.00
G01 X-29.1934 Y-14.0521 F1000.00
G01 X-29.2007 Y-14.0513 F1000.00
G01 X-29.2080 Y-14.0510 F1000.00
G01 X-29.2153 Y-14.0513 F1000.00
G01 X-29.2226 Y-14.0521 F1000.00
G01 X-29.2345 Y-14.0546 F1000.00
G01 X-29.2461 Y-14.0586 F1000.00
G01 X-29.2527 Y-14.0616 F1000.00
G01 X-29.2592 Y-14.0651 F1000.00
G01 X-29.2693 Y-14.0720 F1000.00
G01 X-29.2767 Y-14.0783 F1000.00
G01 X-29.3066 Y-14.1107 F1000.00
G01 X-29.3094 Y-14.1130 F1000.00
G01 X-30.1198 Y-14.1132 F1000.00
G01 X-30.1234 Y-14.1126 F1000.00
G01 X-30.3253 Y-13.8921 F1000.00
G01 X-30.3271 Y-13.8895 F1000.00
G01 X-30.3273 Y-13.0026 F1000.00
G01 X-30.3270 Y-12.9997 F1000.00
G01 X-30.3253 Y-12.9974 F1000.00
G01 X-30.2879 Y-12.9566 F1000.00
M5
G00 X-30.2879 Y-14.7346
G01 F60.00
M03 S_POWER_.0
G01 F1000.00
G01 X-30.2816 Y-14.7270 F1000.00
G01 X-30.2749 Y-14.7167 F1000.00
G01 X-30.2694 Y-14.7056 F1000.00
G01 X-30.2654 Y-14.6939 F1000.00
G01 X-30.2632 Y-14.6843 F1000.00
G01 X-30.2619 Y-14.6721 F1000.00
G01 X-30.2620 Y-14.6597 F1000.00
G01 X-30.2637 Y-14.6475 F1000.00
G01 X-30.2661 Y-14.6379 F1000.00
G01 X-30.2694 Y-14.6286 F1000.00
G01 X-30.2737 Y-14.6197 F1000.00
G01 X-30.2788 Y-14.6113 F1000.00
G01 X-30.2863 Y-14.6015 F1000.00
G01 X-30.3252 Y-14.5589 F1000.00
G01 X-30.3271 Y-14.5562 F1000.00
G01 X-30.3268 Y-14.5551 F1000.00
G01 X-30.3260 Y-14.5545 F1000.00
G01 X-30.3247 Y-14.5548 F1000.00
G01 X-30.3227 Y-14.5567 F1000.00
G01 X-30.2927 Y-14.5892 F1000.00
G01 X-30.2853 Y-14.5955 F1000.00
G01 X-30.2752 Y-14.6024 F1000.00
G01 X-30.2687 Y-14.6059 F1000.00
G01 X-30.2621 Y-14.6089 F1000.00
G01 X-30.2505 Y-14.6129 F1000.00
G01 X-30.2386 Y-14.6154 F1000.00
G01 X-30.2313 Y-14.6162 F1000.00
G01 X-30.2240 Y-14.6165 F1000.00
G01 X-30.2167 Y-14.6162 F1000.00
G01 X-30.2094 Y-14.6154 F1000.00
G01 X-30.1975 Y-14.6129 F1000.00
G01 X-30.1859 Y-14.6089 F1000.00
G01 X-30.1793 Y-14.6059 F1000.00
G01 X-30.1728 Y-14.6024 F1000.00
G01 X-30.1627 Y-14.5955 F1000.00
G01 X-30.1553 Y-14.5892 F1000.00
G01 X-30.1253 Y-14.5567 F1000.00
G01 X-30.1233 Y-14.5547 F1000.00
G01 X-30.1223 Y-14.5544 F1000.00
G01 X-29.3122 Y-14.5543 F1000.00
G01 X-29.3086 Y-14.5549 F1000.00
G01 X-29.1067 Y-14.7754 F1000.00
G01 X-29.1049 Y-14.7780 F1000.00
G01 X-29.1049 Y-15.6674 F1000.00
G01 X-29.1067 Y-15.6701 F1000.00
G01 X-29.1457 Y-15.7127 F1000.00
G01 X-29.1504 Y-15.7185 F1000.00
G01 X-29.1559 Y-15.7267 F1000.00
G01 X-29.1616 Y-15.7376 F1000.00
G01 X-29.1644 Y-15.7445 F1000.00
G01 X-29.1666 Y-15.7516 F1000.00
G01 X-29.1692 Y-15.7636 F1000.00
G01 X-29.1700 Y-15.7710 F1000.00
G01 X-29.1703 Y-15.7784 F1000.00
G01 X-29.1695 Y-15.7907 F1000.00
G01 X-29.1672 Y-15.8028 F1000.00
G01 X-29.1652 Y-15.8099 F1000.00
G01 X-29.1626 Y-15.8169 F1000.00
G01 X-29.1571 Y-15.8279 F1000.00
G01 X-29.1518 Y-15.8363 F1000.00
G01 X-29.1473 Y-15.8421 F1000.00
G01 X-29.1068 Y-15.8866 F1000.00
G01 X-29.1050 Y-15.8890 F1000.00
G01 X-29.1053 Y-15.8905 F1000.00
G01 X-29.1060 Y-15.8910 F1000.00
G01 X-29.1070 Y-15.8909 F1000.00
G01 X-29.1093 Y-15.8888 F1000.00
G01 X-29.1342 Y-15.8615 F1000.00
G01 X-29.1411 Y-15.8547 F1000.00
G01 X-29.1487 Y-15.8485 F1000.00
G01 X-29.1568 Y-15.8431 F1000.00
G01 X-29.1633 Y-15.8396 F1000.00
G01 X-29.1699 Y-15.8366 F1000.00
G01 X-29.1815 Y-15.8326 F1000.00
G01 X-29.1934 Y-15.8301 F1000.00
G01 X-29.2007 Y-15.8293 F1000.00
G01 X-29.2080 Y-15.8290 F1000.00
G01 X-29.2153 Y-15.8293 F1000.00
G01 X-29.2226 Y-15.8301 F1000.00
G01 X-29.2345 Y-15.8326 F1000.00
G01 X-29.2461 Y-15.8366 F1000.00
G01 X-29.2527 Y-15.8396 F1000.00
G01 X-29.2592 Y-15.8431 F1000.00
G01 X-29.2693 Y-15.8500 F1000.00
G01 X-29.2767 Y-15.8563 F1000.00
G01 X-29.3066 Y-15.8887 F1000.00
G01 X-29.3094 Y-15.8910 F1000.00
G01 X-30.1198 Y-15.8912 F1000.00
G01 X-30.1234 Y-15.8906 F1000.00
G01 X-30.3253 Y-15.6701 F1000.00
G01 X-30.3271 Y-15.6675 F1000.00
G01 X-30.3273 Y-14.7806 F1000.00
G01 X-30.3270 Y-14.7777 F1000.00
G01 X-30.3253 Y-14.7754 F1000.00
G01 X-30.2879 Y-14.7346 F1000.00
M5
G00 X-30.1501 Y-14.7503
G01 F60.00
M03 S_POWER_.0
G01 F1000.00
G01 X-29.2719 Y-15.7109 F1000.00
G01 X-29.2642 Y-15.7205 F1000.00
G01 X-29.2601 Y-15.7267 F1000.00
G01 X-29.2565 Y-15.7332 F1000.00
G01 X-29.2516 Y-15.7445 F1000.00
G01 X-29.2482 Y-15.7563 F1000.00
G01 X-29.2462 Y-15.7685 F1000.00
G01 X-29.2458 Y-15.7759 F1000.00
G01 X-29.2459 Y-15.7833 F1000.00
G01 X-29.2472 Y-15.7956 F1000.00
G01 X-29.2501 Y-15.8076 F1000.00
G01 X-29.2544 Y-15.8191 F1000.00
G01 X-29.2601 Y-15.8301 F1000.00
G01 X-29.2671 Y-15.8402 F1000.00
G01 X-29.2824 Y-15.8572 F1000.00
G01 X-29.2919 Y-15.8660 F1000.00
G01 X-29.3004 Y-15.8720 F1000.00
G01 X-29.3117 Y-15.8783 F1000.00
G01 X-29.3238 Y-15.8830 F1000.00
G01 X-29.3363 Y-15.8862 F1000.00
G01 X-29.3466 Y-15.8875 F1000.00
G01 X-29.3544 Y-15.8878 F1000.00
G01 X-30.0802 Y-15.8878 F1000.00
G01 X-30.0905 Y-15.8870 F1000.00
G01 X-30.1007 Y-15.8851 F1000.00
G01 X-30.1107 Y-15.8822 F1000.00
G01 X-30.1203 Y-15.8783 F1000.00
G01 X-30.1294 Y-15.8734 F1000.00
G01 X-30.1359 Y-15.8691 F1000.00
G01 X-30.1440 Y-15.8626 F1000.00
G01 X-30.1514 Y-15.8553 F1000.00
G01 X-30.3023 Y-15.6900 F1000.00
G01 X-30.3101 Y-15.6785 F1000.00
G01 X-30.3154 Y-15.6683 F1000.00
G01 X-30.3201 Y-15.6552 F1000.00
G01 X-30.3226 Y-15.6439 F1000.00
G01 X-30.3237 Y-15.6347 F1000.00
G01 X-30.3239 Y-15.6278 F1000.00
G01 X-30.3238 Y-14.8128 F1000.00
G01 X-30.3224 Y-14.8004 F1000.00
G01 X-30.3208 Y-14.7931 F1000.00
G01 X-30.3187 Y-14.7859 F1000.00
G01 X-30.3160 Y-14.7789 F1000.00
G01 X-30.3129 Y-14.7721 F1000.00
G01 X-30.3065 Y-14.7613 F1000.00
G01 X-30.2988 Y-14.7515 F1000.00
G01 X-30.2936 Y-14.7461 F1000.00
G01 X-30.2880 Y-14.7410 F1000.00
G01 X-30.2821 Y-14.7365 F1000.00
G01 X-30.2758 Y-14.7323 F1000.00
G01 X-30.2648 Y-14.7265 F1000.00
G01 X-30.2578 Y-14.7237 F1000.00
G01 X-30.2507 Y-14.7215 F1000.00
G01 X-30.2434 Y-14.7197 F1000.00
G01 X-30.2359 Y-14.7185 F1000.00
G01 X-30.2235 Y-14.7178 F1000.00
G01 X-30.2160 Y-14.7181 F1000.00
G01 X-30.2085 Y-14.7190 F1000.00
G01 X-30.1963 Y-14.7217 F1000.00
G01 X-30.1892 Y-14.7241 F1000.00
G01 X-30.1823 Y-14.7269 F1000.00
G01 X-30.1713 Y-14.7328 F1000.00
G01 X-30.1650 Y-14.7370 F1000.00
G01 X-30.1591 Y-14.7417 F1000.00
G01 X-30.1501 Y-14.7503 F1000.00
G01 X-29.2819 Y-15.6952 F1000.00
G01 X-30.1617 Y-14.7328 F1000.00
G01 X-30.1664 Y-14.7270 F1000.00
G01 X-30.1719 Y-14.7188 F1000.00
G01 X-30.1766 Y-14.7101 F1000.00
G01 X-30.1795 Y-14.7033 F1000.00
G01 X-30.1826 Y-14.6939 F1000.00
G01 X-30.1843 Y-14.6867 F1000.00
G01 X-30.1858 Y-14.6770 F1000.00
G01 X-30.1863 Y-14.6671 F1000.00
G01 X-30.1858 Y-14.6573 F1000.00
G01 X-30.1843 Y-14.6475 F1000.00
G01 X-30.1819 Y-14.6379 F1000.00
G01 X-30.1776 Y-14.6264 F1000.00
G01 X-30.1731 Y-14.6176 F1000.00
G01 X-30.1678 Y-14.6092 F1000.00
G01 X-30.1617 Y-14.6015 F1000.00
G01 X-30.1514 Y-14.5902 F1000.00
G01 X-30.1440 Y-14.5829 F1000.00
G01 X-30.1380 Y-14.5780 F1000.00
G01 X-30.1316 Y-14.5735 F1000.00
G01 X-30.1226 Y-14.5684 F1000.00
G01 X-30.1155 Y-14.5651 F1000.00
G01 X-30.1058 Y-14.5617 F1000.00
G01 X-30.0957 Y-14.5593 F1000.00
G01 X-30.0854 Y-14.5580 F1000.00
G01 X-30.0776 Y-14.5577 F1000.00
G01 X-29.3492 Y-14.5578 F1000.00
G01 X-29.3389 Y-14.5589 F1000.00
G01 X-29.3287 Y-14.5610 F1000.00
G01 X-29.3189 Y-14.5642 F1000.00
G01 X-29.3117 Y-14.5672 F1000.00
G01 X-29.3026 Y-14.5721 F1000.00
G01 X-29.2961 Y-14.5764 F1000.00
G01 X-29.2880 Y-14.5829 F1000.00
G01 X-29.2806 Y-14.5902 F1000.00
G01 X-29.1297 Y-14.7555 F1000.00
G01 X-29.1219 Y-14.7670 F1000.00
G01 X-29.1166 Y-14.7772 F1000.00
G01 X-29.1119 Y-14.7903 F1000.00
G01 X-29.1094 Y-14.8016 F1000.00
G01 X-29.1083 Y-14.8108 F1000.00
G01 X-29.1081 Y-14.8177 F1000.00
G01 X-29.1081 Y-15.6277 F1000.00
G01 X-29.1083 Y-15.6352 F1000.00
G01 X-29.1092 Y-15.6426 F1000.00
G01 X-29.1106 Y-15.6500 F1000.00
G01 X-29.1125 Y-15.6572 F1000.00
G01 X-29.1150 Y-15.6643 F1000.00
G01 X-29.1180 Y-15.6712 F1000.00
G01 X-29.1215 Y-15.6778 F1000.00
G01 X-29.1255 Y-15.6842 F1000.00
G01 X-29.1300 Y-15.6902 F1000.00
G01 X-29.1349 Y-15.6959 F1000.00
G01 X-29.1402 Y-15.7012 F1000.00
G01 X-29.1459 Y-15.7060 F1000.00
G01 X-29.1520 Y-15.7105 F1000.00
G01 X-29.1583 Y-15.7144 F1000.00
G01 X-29.1650 Y-15.7179 F1000.00
G01 X-29.1719 Y-15.7209 F1000.00
G01 X-29.1789 Y-15.7233 F1000.00
G01 X-29.1862 Y-15.7253 F1000.00
G01 X-29.1936 Y-15.7266 F1000.00
G01 X-29.2010 Y-15.7274 F1000.00
G01 X-29.2085 Y-15.7277 F1000.00
G01 X-29.2160 Y-15.7274 F1000.00
G01 X-29.2235 Y-15.7265 F1000.00
G01 X-29.2308 Y-15.7250 F1000.00
G01 X-29.2381 Y-15.7231 F1000.00
G01 X-29.2451 Y-15.7205 F1000.00
G01 X-29.2520 Y-15.7175 F1000.00
G01 X-29.2586 Y-15.7140 F1000.00
G01 X-29.2649 Y-15.7099 F1000.00
G01 X-29.2709 Y-15.7054 F1000.00
G01 X-29.2766 Y-15.7005 F1000.00
G01 X-29.2819 Y-15.6952 F1000.00
M5
G00 X-30.3259 Y-17.6660
G01 F60.00
M03 S_POWER_.0
G01 F1000.00
G01 X-30.3165 Y-17.6631 F1000.00
G01 X-30.3096 Y-17.6604 F1000.00
G01 X-30.3030 Y-17.6572 F1000.00
G01 X-30.2966 Y-17.6534 F1000.00
G01 X-30.2886 Y-17.6478 F1000.00
G01 X-30.2830 Y-17.6430 F1000.00
G01 X-30.2777 Y-17.6379 F1000.00
G01 X-30.2713 Y-17.6304 F1000.00
G01 X-30.2656 Y-17.6224 F1000.00
G01 X-30.2619 Y-17.6160 F1000.00
G01 X-30.2587 Y-17.6093 F1000.00
G01 X-30.2560 Y-17.6025 F1000.00
G01 X-30.2531 Y-17.5931 F1000.00
G01 X-30.2516 Y-17.5859 F1000.00
G01 X-30.2507 Y-17.5785 F1000.00
G01 X-30.2502 Y-17.5687 F1000.00
G01 X-30.2510 Y-17.5565 F1000.00
G01 X-30.2522 Y-17.5492 F1000.00
G01 X-30.2539 Y-17.5420 F1000.00
G01 X-30.2562 Y-17.5350 F1000.00
G01 X-30.2589 Y-17.5281 F1000.00
G01 X-30.2622 Y-17.5215 F1000.00
G01 X-30.2659 Y-17.5152 F1000.00
G01 X-30.2701 Y-17.5091 F1000.00
G01 X-30.2748 Y-17.5034 F1000.00
G01 X-30.3253 Y-17.4481 F1000.00
G01 X-30.3271 Y-17.4454 F1000.00
G01 X-30.3273 Y-16.5586 F1000.00
G01 X-30.3269 Y-16.5554 F1000.00
G01 X-30.1254 Y-16.3348 F1000.00
G01 X-30.1229 Y-16.3326 F1000.00
G01 X-29.5153 Y-16.3323 F1000.00
G01 X-29.5119 Y-16.3327 F1000.00
G01 X-29.5113 Y-16.3340 F1000.00
G01 X-29.5118 Y-16.3352 F1000.00
G01 X-29.5153 Y-16.3357 F1000.00
G01 X-30.0776 Y-16.3357 F1000.00
G01 X-30.0905 Y-16.3365 F1000.00
G01 X-30.1033 Y-16.3390 F1000.00
G01 X-30.1155 Y-16.3431 F1000.00
G01 X-30.1272 Y-16.3488 F1000.00
G01 X-30.1380 Y-16.3560 F1000.00
G01 X-30.1478 Y-16.3644 F1000.00
G01 X-30.2978 Y-16.5282 F1000.00
G01 X-30.3037 Y-16.5353 F1000.00
G01 X-30.3113 Y-16.5470 F1000.00
G01 X-30.3144 Y-16.5531 F1000.00
G01 X-30.3180 Y-16.5617 F1000.00
G01 X-30.3207 Y-16.5705 F1000.00
G01 X-30.3222 Y-16.5773 F1000.00
G01 X-30.3235 Y-16.5865 F1000.00
G01 X-30.3239 Y-16.5934 F1000.00
G01 X-30.3239 Y-17.4058 F1000.00
G01 X-30.3235 Y-17.4150 F1000.00
G01 X-30.3222 Y-17.4242 F1000.00
G01 X-30.3207 Y-17.4310 F1000.00
G01 X-30.3180 Y-17.4398 F1000.00
G01 X-30.3144 Y-17.4484 F1000.00
G01 X-30.3113 Y-17.4545 F1000.00
G01 X-30.3064 Y-17.4624 F1000.00
G01 X-30.3008 Y-17.4698 F1000.00
G01 X-30.1478 Y-17.6371 F1000.00
G01 X-30.1401 Y-17.6440 F1000.00
G01 X-30.1294 Y-17.6514 F1000.00
G01 X-30.1179 Y-17.6574 F1000.00
G01 X-30.1082 Y-17.6610 F1000.00
G01 X-30.1007 Y-17.6631 F1000.00
G01 X-30.0931 Y-17.6646 F1000.00
G01 X-30.0854 Y-17.6655 F1000.00
G01 X-30.0776 Y-17.6658 F1000.00
G01 X-29.5153 Y-17.6658 F1000.00
G01 X-29.5119 Y-17.6662 F1000.00
G01 X-29.5113 Y-17.6672 F1000.00
G01 X-29.5115 Y-17.6684 F1000.00
G01 X-29.5125 Y-17.6690 F1000.00
G01 X-29.5153 Y-17.6692 F1000.00
G01 X-30.3231 Y-17.6692 F1000.00
G01 X-30.3259 Y-17.6690 F1000.00
G01 X-30.3268 Y-17.6685 F1000.00
G01 X-30.3270 Y-17.6669 F1000.00
G01 X-30.3259 Y-17.6660 F1000.00
M5
G00 X-30.3259 Y-0.6660
G01 F60.00
M03 S_POWER_.0
G01 F1000.00
G01 X-30.3165 Y-0.6631 F1000.00
G01 X-30.3096 Y-0.6604 F1000.00
G01 X-30.3030 Y-0.6572 F1000.00
G01 X-30.2946 Y-0.6521 F1000.00
G01 X-30.2867 Y-0.6462 F1000.00
G01 X-30.2812 Y-0.6413 F1000.00
G01 X-30.2760 Y-0.6361 F1000.00
G01 X-30.2713 Y-0.6304 F1000.00
G01 X-30.2656 Y-0.6224 F1000.00
G01 X-30.2619 Y-0.6160 F1000.00
G01 X-30.2587 Y-0.6093 F1000.00
G01 X-30.2560 Y-0.6025 F1000.00
G01 X-30.2538 Y-0.5955 F1000.00
G01 X-30.2516 Y-0.5859 F1000.00
G01 X-30.2507 Y-0.5785 F1000.00
G01 X-30.2502 Y-0.5687 F1000.00
G01 X-30.2510 Y-0.5565 F1000.00
G01 X-30.2522 Y-0.5492 F1000.00
G01 X-30.2539 Y-0.5420 F1000.00
G01 X-30.2562 Y-0.5350 F1000.00
G01 X-30.2589 Y-0.5281 F1000.00
G01 X-30.2622 Y-0.5215 F1000.00
G01 X-30.2659 Y-0.5152 F1000.00
G01 X-30.2701 Y-0.5091 F1000.00
G01 X-30.2748 Y-0.5034 F1000.00
G01 X-30.3253 Y-0.4481 F1000.00
G01 X-30.3271 Y-0.4454 F1000.00
G01 X-30.3273 Y0.4414 F1000.00
G01 X-30.3269 Y0.4446 F1000.00
G01 X-30.1254 Y0.6652 F1000.00
G01 X-30.1229 Y0.6674 F1000.00
G01 X-29.5153 Y0.6677 F1000.00
G01 X-29.5119 Y0.6673 F1000.00
G01 X-29.5113 Y0.6660 F1000.00
G01 X-29.5118 Y0.6648 F1000.00
G01 X-29.5153 Y0.6643 F1000.00
G01 X-30.0776 Y0.6643 F1000.00
G01 X-30.0905 Y0.6635 F1000.00
G01 X-30.1033 Y0.6610 F1000.00
G01 X-30.1155 Y0.6569 F1000.00
G01 X-30.1272 Y0.6512 F1000.00
G01 X-30.1380 Y0.6440 F1000.00
G01 X-30.1478 Y0.6356 F1000.00
G01 X-30.2978 Y0.4718 F1000.00
G01 X-30.3037 Y0.4647 F1000.00
G01 X-30.3077 Y0.4590 F1000.00
G01 X-30.3124 Y0.4510 F1000.00
G01 X-30.3180 Y0.4383 F1000.00
G01 X-30.3207 Y0.4295 F1000.00
G01 X-30.3222 Y0.4227 F1000.00
G01 X-30.3233 Y0.4158 F1000.00
G01 X-30.3239 Y0.4066 F1000.00
G01 X-30.3239 Y-0.4058 F1000.00
G01 X-30.3237 Y-0.4127 F1000.00
G01 X-30.3226 Y-0.4219 F1000.00
G01 X-30.3207 Y-0.4310 F1000.00
G01 X-30.3180 Y-0.4398 F1000.00
G01 X-30.3144 Y-0.4484 F1000.00
G01 X-30.3113 Y-0.4545 F1000.00
G01 X-30.3064 Y-0.4624 F1000.00
G01 X-30.3008 Y-0.4698 F1000.00
G01 X-30.1478 Y-0.6371 F1000.00
G01 X-30.1401 Y-0.6440 F1000.00
G01 X-30.1294 Y-0.6514 F1000.00
G01 X-30.1179 Y-0.6574 F1000.00
G01 X-30.1082 Y-0.6610 F1000.00
G01 X-30.1007 Y-0.6631 F1000.00
G01 X-30.0931 Y-0.6646 F1000.00
G01 X-30.0854 Y-0.6655 F1000.00
G01 X-30.0776 Y-0.6658 F1000.00
G01 X-29.5153 Y-0.6658 F1000.00
G01 X-29.5119 Y-0.6662 F1000.00
G01 X-29.5113 Y-0.6672 F1000.00
G01 X-29.5115 Y-0.6684 F1000.00
G01 X-29.5125 Y-0.6690 F1000.00
G01 X-29.5153 Y-0.6692 F1000.00
G01 X-30.3231 Y-0.6692 F1000.00
G01 X-30.3259 Y-0.6690 F1000.00
G01 X-30.3268 Y-0.6685 F1000.00
G01 X-30.3270 Y-0.6669 F1000.00
G01 X-30.3259 Y-0.6660 F1000.00
M5
G00 X-29.2819 Y1.3048
G01 F60.00
M03 S_POWER_.0
G01 F1000.00
G01 X-29.2766 Y1.2995 F1000.00
G01 X-29.2709 Y1.2946 F1000.00
G01 X-29.2649 Y1.2901 F1000.00
G01 X-29.2586 Y1.2860 F1000.00
G01 X-29.2520 Y1.2825 F1000.00
G01 X-29.2451 Y1.2795 F1000.00
G01 X-29.2381 Y1.2769 F1000.00
G01 X-29.2308 Y1.2750 F1000.00
G01 X-29.2235 Y1.2735 F1000.00
G01 X-29.2160 Y1.2726 F1000.00
G01 X-29.2085 Y1.2723 F1000.00
G01 X-29.2010 Y1.2726 F1000.00
G01 X-29.1936 Y1.2734 F1000.00
G01 X-29.1862 Y1.2747 F1000.00
G01 X-29.1789 Y1.2767 F1000.00
G01 X-29.1719 Y1.2791 F1000.00
G01 X-29.1650 Y1.2821 F1000.00
G01 X-29.1583 Y1.2856 F1000.00
G01 X-29.1520 Y1.2895 F1000.00
G01 X-29.1459 Y1.2940 F1000.00
G01 X-29.1402 Y1.2988 F1000.00
G01 X-29.1349 Y1.3041 F1000.00
G01 X-29.1300 Y1.3098 F1000.00
G01 X-29.1255 Y1.3158 F1000.00
G01 X-29.1215 Y1.3222 F1000.00
G01 X-29.1180 Y1.3288 F1000.00
G01 X-29.1150 Y1.3357 F1000.00
G01 X-29.1125 Y1.3428 F1000.00
G01 X-29.1106 Y1.3500 F1000.00
G01 X-29.1092 Y1.3574 F1000.00
G01 X-29.1083 Y1.3648 F1000.00
G01 X-29.1081 Y1.3723 F1000.00
G01 X-29.1081 Y2.1823 F1000.00
G01 X-29.1083 Y2.1892 F1000.00
G01 X-29.1094 Y2.1984 F1000.00
G01 X-29.1119 Y2.2097 F1000.00
G01 X-29.1166 Y2.2228 F1000.00
G01 X-29.1219 Y2.2330 F1000.00
G01 X-29.1297 Y2.2445 F1000.00
G01 X-29.2806 Y2.4098 F1000.00
G01 X-29.2880 Y2.4171 F1000.00
G01 X-29.2940 Y2.4220 F1000.00
G01 X-29.3026 Y2.4279 F1000.00
G01 X-29.3117 Y2.4328 F1000.00
G01 X-29.3189 Y2.4358 F1000.00
G01 X-29.3287 Y2.4390 F1000.00
G01 X-29.3389 Y2.4411 F1000.00
G01 X-29.3492 Y2.4422 F1000.00
G01 X-30.0776 Y2.4423 F1000.00
G01 X-30.0854 Y2.4420 F1000.00
G01 X-30.0957 Y2.4407 F1000.00
G01 X-30.1033 Y2.4390 F1000.00
G01 X-30.1131 Y2.4358 F1000.00
G01 X-30.1203 Y2.4328 F1000.00
G01 X-30.1294 Y2.4279 F1000.00
G01 X-30.1380 Y2.4220 F1000.00
G01 X-30.1440 Y2.4171 F1000.00
G01 X-30.1514 Y2.4098 F1000.00
G01 X-30.1617 Y2.3985 F1000.00
G01 X-30.1678 Y2.3908 F1000.00
G01 X-30.1731 Y2.3824 F1000.00
G01 X-30.1776 Y2.3736 F1000.00
G01 X-30.1819 Y2.3621 F1000.00
G01 X-30.1843 Y2.3525 F1000.00
G01 X-30.1858 Y2.3427 F1000.00
G01 X-30.1863 Y2.3329 F1000.00
G01 X-30.1858 Y2.3230 F1000.00
G01 X-30.1848 Y2.3157 F1000.00
G01 X-30.1832 Y2.3084 F1000.00
G01 X-30.1804 Y2.2990 F1000.00
G01 X-30.1766 Y2.2899 F1000.00
G01 X-30.1719 Y2.2812 F1000.00
G01 X-30.1664 Y2.2730 F1000.00
G01 X-30.1617 Y2.2672 F1000.00
G01 X-29.2819 Y1.3048 F1000.00
G01 X-30.1501 Y2.2497 F1000.00
G01 X-30.1591 Y2.2583 F1000.00
G01 X-30.1650 Y2.2630 F1000.00
G01 X-30.1713 Y2.2672 F1000.00
G01 X-30.1823 Y2.2731 F1000.00
G01 X-30.1892 Y2.2759 F1000.00
G01 X-30.1963 Y2.2783 F1000.00
G01 X-30.2036 Y2.2801 F1000.00
G01 X-30.2110 Y2.2813 F1000.00
G01 X-30.2235 Y2.2822 F1000.00
G01 X-30.2310 Y2.2819 F1000.00
G01 X-30.2384 Y2.2811 F1000.00
G01 X-30.2507 Y2.2785 F1000.00
G01 X-30.2578 Y2.2763 F1000.00
G01 X-30.2648 Y2.2735 F1000.00
G01 X-30.2758 Y2.2677 F1000.00
G01 X-30.2821 Y2.2635 F1000.00
G01 X-30.2880 Y2.2590 F1000.00
G01 X-30.2971 Y2.2504 F1000.00
G01 X-30.3020 Y2.2447 F1000.00
G01 X-30.3065 Y2.2387 F1000.00
G01 X-30.3129 Y2.2279 F1000.00
G01 X-30.3160 Y2.2211 F1000.00
G01 X-30.3187 Y2.2141 F1000.00
G01 X-30.3208 Y2.2069 F1000.00
G01 X-30.3224 Y2.1996 F1000.00
G01 X-30.3238 Y2.1872 F1000.00
G01 X-30.3239 Y1.3722 F1000.00
G01 X-30.3237 Y1.3653 F1000.00
G01 X-30.3226 Y1.3561 F1000.00
G01 X-30.3201 Y1.3448 F1000.00
G01 X-30.3154 Y1.3317 F1000.00
G01 X-30.3101 Y1.3215 F1000.00
G01 X-30.3023 Y1.3100 F1000.00
G01 X-30.1514 Y1.1447 F1000.00
G01 X-30.1440 Y1.1374 F1000.00
G01 X-30.1359 Y1.1309 F1000.00
G01 X-30.1272 Y1.1253 F1000.00
G01 X-30.1179 Y1.1206 F1000.00
G01 X-30.1107 Y1.1178 F1000.00
G01 X-30.1007 Y1.1149 F1000.00
G01 X-30.0905 Y1.1130 F1000.00
G01 X-30.0802 Y1.1122 F1000.00
G01 X-29.3544 Y1.1122 F1000.00
G01 X-29.3466 Y1.1125 F1000.00
G01 X-29.3363 Y1.1138 F1000.00
G01 X-29.3238 Y1.1170 F1000.00
G01 X-29.3141 Y1.1206 F1000.00
G01 X-29.3026 Y1.1266 F1000.00
G01 X-29.2919 Y1.1340 F1000.00
G01 X-29.2824 Y1.1428 F1000.00
G01 X-29.2671 Y1.1598 F1000.00
G01 X-29.2601 Y1.1699 F1000.00
G01 X-29.2544 Y1.1809 F1000.00
G01 X-29.2501 Y1.1924 F1000.00
G01 X-29.2472 Y1.2044 F1000.00
G01 X-29.2459 Y1.2167 F1000.00
G01 X-29.2458 Y1.2241 F1000.00
G01 X-29.2462 Y1.2315 F1000.00
G01 X-29.2482 Y1.2437 F1000.00
G01 X-29.2516 Y1.2555 F1000.00
G01 X-29.2565 Y1.2668 F1000.00
G01 X-29.2601 Y1.2733 F1000.00
G01 X-29.2642 Y1.2795 F1000.00
G01 X-29.2719 Y1.2891 F1000.00
G01 X-30.1501 Y2.2497 F1000.00
M5
G00 X-30.2879 Y2.2654
G01 F60.00
M03 S_POWER_.0
G01 F1000.00
G01 X-30.2816 Y2.2730 F1000.00
G01 X-30.2749 Y2.2833 F1000.00
G01 X-30.2694 Y2.2944 F1000.00
G01 X-30.2654 Y2.3061 F1000.00
G01 X-30.2632 Y2.3157 F1000.00
G01 X-30.2619 Y2.3279 F1000.00
G01 X-30.2620 Y2.3403 F1000.00
G01 X-30.2637 Y2.3525 F1000.00
G01 X-30.2661 Y2.3621 F1000.00
G01 X-30.2694 Y2.3714 F1000.00
G01 X-30.2737 Y2.3803 F1000.00
G01 X-30.2788 Y2.3887 F1000.00
G01 X-30.2863 Y2.3985 F1000.00
G01 X-30.3252 Y2.4411 F1000.00
G01 X-30.3271 Y2.4438 F1000.00
G01 X-30.3268 Y2.4449 F1000.00
G01 X-30.3260 Y2.4455 F1000.00
G01 X-30.3247 Y2.4452 F1000.00
G01 X-30.3227 Y2.4433 F1000.00
G01 X-30.2927 Y2.4108 F1000.00
G01 X-30.2853 Y2.4045 F1000.00
G01 X-30.2752 Y2.3976 F1000.00
G01 X-30.2687 Y2.3941 F1000.00
G01 X-30.2621 Y2.3911 F1000.00
G01 X-30.2505 Y2.3871 F1000.00
G01 X-30.2386 Y2.3846 F1000.00
G01 X-30.2313 Y2.3838 F1000.00
G01 X-30.2240 Y2.3835 F1000.00
G01 X-30.2167 Y2.3838 F1000.00
G01 X-30.2094 Y2.3846 F1000.00
G01 X-30.1975 Y2.3871 F1000.00
G01 X-30.1859 Y2.3911 F1000.00
G01 X-30.1793 Y2.3941 F1000.00
G01 X-30.1728 Y2.3976 F1000.00
G01 X-30.1627 Y2.4045 F1000.00
G01 X-30.1553 Y2.4108 F1000.00
G01 X-30.1253 Y2.4433 F1000.00
G01 X-30.1233 Y2.4453 F1000.00
G01 X-30.1223 Y2.4456 F1000.00
G01 X-29.3122 Y2.4457 F1000.00
G01 X-29.3086 Y2.4451 F1000.00
G01 X-29.1067 Y2.2246 F1000.00
G01 X-29.1049 Y2.2220 F1000.00
G01 X-29.1049 Y1.3326 F1000.00
G01 X-29.1067 Y1.3299 F1000.00
G01 X-29.1457 Y1.2873 F1000.00
G01 X-29.1504 Y1.2815 F1000.00
G01 X-29.1559 Y1.2733 F1000.00
G01 X-29.1616 Y1.2624 F1000.00
G01 X-29.1644 Y1.2555 F1000.00
G01 X-29.1666 Y1.2484 F1000.00
G01 X-29.1692 Y1.2364 F1000.00
G01 X-29.1700 Y1.2290 F1000.00
G01 X-29.1703 Y1.2216 F1000.00
G01 X-29.1695 Y1.2093 F1000.00
G01 X-29.1672 Y1.1972 F1000.00
G01 X-29.1652 Y1.1901 F1000.00
G01 X-29.1626 Y1.1831 F1000.00
G01 X-29.1571 Y1.1721 F1000.00
G01 X-29.1518 Y1.1637 F1000.00
G01 X-29.1473 Y1.1579 F1000.00
G01 X-29.1068 Y1.1134 F1000.00
G01 X-29.1050 Y1.1110 F1000.00
G01 X-29.1053 Y1.1095 F1000.00
G01 X-29.1062 Y1.1090 F1000.00
G01 X-29.1070 Y1.1091 F1000.00
G01 X-29.1093 Y1.1112 F1000.00
G01 X-29.1342 Y1.1385 F1000.00
G01 X-29.1411 Y1.1453 F1000.00
G01 X-29.1487 Y1.1515 F1000.00
G01 X-29.1568 Y1.1569 F1000.00
G01 X-29.1633 Y1.1604 F1000.00
G01 X-29.1699 Y1.1634 F1000.00
G01 X-29.1815 Y1.1674 F1000.00
G01 X-29.1934 Y1.1699 F1000.00
G01 X-29.2007 Y1.1707 F1000.00
G01 X-29.2080 Y1.1710 F1000.00
G01 X-29.2153 Y1.1707 F1000.00
G01 X-29.2226 Y1.1699 F1000.00
G01 X-29.2345 Y1.1674 F1000.00
G01 X-29.2461 Y1.1634 F1000.00
G01 X-29.2527 Y1.1604 F1000.00
G01 X-29.2592 Y1.1569 F1000.00
G01 X-29.2693 Y1.1500 F1000.00
G01 X-29.2767 Y1.1437 F1000.00
G01 X-29.3066 Y1.1113 F1000.00
G01 X-29.3094 Y1.1090 F1000.00
G01 X-30.1198 Y1.1088 F1000.00
G01 X-30.1234 Y1.1094 F1000.00
G01 X-30.3253 Y1.3299 F1000.00
G01 X-30.3271 Y1.3325 F1000.00
G01 X-30.3273 Y2.2194 F1000.00
G01 X-30.3270 Y2.2223 F1000.00
G01 X-30.3253 Y2.2246 F1000.00
G01 X-30.2879 Y2.2654 F1000.00
M5
G00 X-29.2819 Y3.0828
G01 F60.00
M03 S_POWER_.0
G01 F1000.00
G01 X-29.2766 Y3.0775 F1000.00
G01 X-29.2709 Y3.0726 F1000.00
G01 X-29.2649 Y3.0681 F1000.00
G01 X-29.2586 Y3.0640 F1000.00
G01 X-29.2520 Y3.0605 F1000.00
G01 X-29.2451 Y3.0575 F1000.00
G01 X-29.2381 Y3.0549 F1000.00
G01 X-29.2308 Y3.0530 F1000.00
G01 X-29.2235 Y3.0515 F1000.00
G01 X-29.2160 Y3.0506 F1000.00
G01 X-29.2085 Y3.0503 F1000.00
G01 X-29.2010 Y3.0506 F1000.00
G01 X-29.1936 Y3.0514 F1000.00
G01 X-29.1862 Y3.0527 F1000.00
G01 X-29.1789 Y3.0547 F1000.00
G01 X-29.1719 Y3.0571 F1000.00
G01 X-29.1650 Y3.0601 F1000.00
G01 X-29.1583 Y3.0636 F1000.00
G01 X-29.1520 Y3.0675 F1000.00
G01 X-29.1459 Y3.0720 F1000.00
G01 X-29.1402 Y3.0768 F1000.00
G01 X-29.1349 Y3.0821 F1000.00
G01 X-29.1300 Y3.0878 F1000.00
G01 X-29.1255 Y3.0938 F1000.00
G01 X-29.1215 Y3.1002 F1000.00
G01 X-29.1180 Y3.1068 F1000.00
G01 X-29.1150 Y3.1137 F1000.00
G01 X-29.1125 Y3.1208 F1000.00
G01 X-29.1106 Y3.1280 F1000.00
G01 X-29.1092 Y3.1354 F1000.00
G01 X-29.1083 Y3.1428 F1000.00
G01 X-29.1081 Y3.1503 F1000.00
G01 X-29.1081 Y3.9603 F1000.00
G01 X-29.1083 Y3.9672 F1000.00
G01 X-29.1094 Y3.9764 F1000.00
G01 X-29.1119 Y3.9877 F1000.00
G01 X-29.1166 Y4.0008 F1000.00
G01 X-29.1219 Y4.0110 F1000.00
G01 X-29.1297 Y4.0225 F1000.00
G01 X-29.2806 Y4.1878 F1000.00
G01 X-29.2880 Y4.1951 F1000.00
G01 X-29.2940 Y4.2000 F1000.00
G01 X-29.3026 Y4.2059 F1000.00
G01 X-29.3117 Y4.2108 F1000.00
G01 X-29.3189 Y4.2138 F1000.00
G01 X-29.3287 Y4.2170 F1000.00
G01 X-29.3389 Y4.2191 F1000.00
G01 X-29.3492 Y4.2202 F1000.00
G01 X-30.0776 Y4.2203 F1000.00
G01 X-30.0854 Y4.2200 F1000.00
G01 X-30.0957 Y4.2187 F1000.00
G01 X-30.1033 Y4.2170 F1000.00
G01 X-30.1131 Y4.2138 F1000.00
G01 X-30.1203 Y4.2108 F1000.00
G01 X-30.1294 Y4.2059 F1000.00
G01 X-30.1380 Y4.2000 F1000.00
G01 X-30.1440 Y4.1951 F1000.00
G01 X-30.1514 Y4.1878 F1000.00
G01 X-30.1617 Y4.1765 F1000.00
G01 X-30.1678 Y4.1688 F1000.00
G01 X-30.1731 Y4.1604 F1000.00
G01 X-30.1776 Y4.1516 F1000.00
G01 X-30.1819 Y4.1401 F1000.00
G01 X-30.1843 Y4.1305 F1000.00
G01 X-30.1858 Y4.1207 F1000.00
G01 X-30.1863 Y4.1109 F1000.00
G01 X-30.1858 Y4.1010 F1000.00
G01 X-30.1848 Y4.0937 F1000.00
G01 X-30.1832 Y4.0864 F1000.00
G01 X-30.1804 Y4.0770 F1000.00
G01 X-30.1766 Y4.0679 F1000.00
G01 X-30.1719 Y4.0592 F1000.00
G01 X-30.1664 Y4.0510 F1000.00
G01 X-30.1617 Y4.0452 F1000.00
G01 X-29.2819 Y3.0828 F1000.00
G01 X-30.1501 Y4.0277 F1000.00
G01 X-30.1591 Y4.0363 F1000.00
G01 X-30.1650 Y4.0410 F1000.00
G01 X-30.1713 Y4.0452 F1000.00
G01 X-30.1823 Y4.0511 F1000.00
G01 X-30.1892 Y4.0539 F1000.00
G01 X-30.1963 Y4.0563 F1000.00
G01 X-30.2036 Y4.0581 F1000.00
G01 X-30.2110 Y4.0593 F1000.00
G01 X-30.2235 Y4.0602 F1000.00
G01 X-30.2310 Y4.0599 F1000.00
G01 X-30.2384 Y4.0591 F1000.00
G01 X-30.2507 Y4.0565 F1000.00
G01 X-30.2578 Y4.0543 F1000.00
G01 X-30.2648 Y4.0515 F1000.00
G01 X-30.2758 Y4.0457 F1000.00
G01 X-30.2821 Y4.0415 F1000.00
G01 X-30.2880 Y4.0370 F1000.00
G01 X-30.2971 Y4.0284 F1000.00
G01 X-30.3020 Y4.0227 F1000.00
G01 X-30.3065 Y4.0167 F1000.00
G01 X-30.3129 Y4.0059 F1000.00
G01 X-30.3160 Y3.9991 F1000.00
G01 X-30.3187 Y3.9921 F1000.00
G01 X-30.3208 Y3.9849 F1000.00
G01 X-30.3224 Y3.9776 F1000.00
G01 X-30.3238 Y3.9652 F1000.00
G01 X-30.3239 Y3.1502 F1000.00
G01 X-30.3237 Y3.1433 F1000.00
G01 X-30.3226 Y3.1341 F1000.00
G01 X-30.3201 Y3.1228 F1000.00
G01 X-30.3154 Y3.1097 F1000.00
G01 X-30.3101 Y3.0995 F1000.00
G01 X-30.3023 Y3.0880 F1000.00
G01 X-30.1514 Y2.9227 F1000.00
G01 X-30.1440 Y2.9154 F1000.00
G01 X-30.1359 Y2.9089 F1000.00
G01 X-30.1272 Y2.9033 F1000.00
G01 X-30.1179 Y2.8986 F1000.00
G01 X-30.1107 Y2.8958 F1000.00
G01 X-30.1007 Y2.8929 F1000.00
G01 X-30.0905 Y2.8910 F1000.00
G01 X-30.0802 Y2.8902 F1000.00
G01 X-29.3544 Y2.8902 F1000.00
G01 X-29.3466 Y2.8905 F1000.00
G01 X-29.3363 Y2.8918 F1000.00
G01 X-29.3238 Y2.8950 F1000.00
G01 X-29.3141 Y2.8986 F1000.00
G01 X-29.3026 Y2.9046 F1000.00
G01 X-29.2919 Y2.9120 F1000.00
G01 X-29.2824 Y2.9208 F1000.00
G01 X-29.2671 Y2.9378 F1000.00
G01 X-29.2601 Y2.9479 F1000.00
G01 X-29.2544 Y2.9589 F1000.00
G01 X-29.2501 Y2.9704 F1000.00
G01 X-29.2472 Y2.9824 F1000.00
G01 X-29.2459 Y2.9947 F1000.00
G01 X-29.2458 Y3.0021 F1000.00
G01 X-29.2462 Y3.0095 F1000.00
G01 X-29.2482 Y3.0217 F1000.00
G01 X-29.2516 Y3.0335 F1000.00
G01 X-29.2565 Y3.0448 F1000.00
G01 X-29.2601 Y3.0513 F1000.00
G01 X-29.2642 Y3.0575 F1000.00
G01 X-29.2719 Y3.0671 F1000.00
G01 X-30.1501 Y4.0277 F1000.00
M5
G00 X-30.2879 Y4.0434
G01 F60.00
M03 S_POWER_.0
G01 F1000.00
G01 X-30.2816 Y4.0510 F1000.00
G01 X-30.2749 Y4.0613 F1000.00
G01 X-30.2694 Y4.0724 F1000.00
G01 X-30.2654 Y4.0841 F1000.00
G01 X-30.2632 Y4.0937 F1000.00
G01 X-30.2619 Y4.1059 F1000.00
G01 X-30.2620 Y4.1183 F1000.00
G01 X-30.2637 Y4.1305 F1000.00
G01 X-30.2661 Y4.1401 F1000.00
G01 X-30.2694 Y4.1494 F1000.00
G01 X-30.2737 Y4.1583 F1000.00
G01 X-30.2788 Y4.1667 F1000.00
G01 X-30.2863 Y4.1765 F1000.00
G01 X-30.3252 Y4.2191 F1000.00
G01 X-30.3271 Y4.2218 F1000.00
G01 X-30.3268 Y4.2229 F1000.00
G01 X-30.3260 Y4.2235 F1000.00
G01 X-30.3247 Y4.2232 F1000.00
G01 X-30.3227 Y4.2213 F1000.00
G01 X-30.2927 Y4.1888 F1000.00
G01 X-30.2853 Y4.1825 F1000.00
G01 X-30.2752 Y4.1756 F1000.00
G01 X-30.2687 Y4.1721 F1000.00
G01 X-30.2621 Y4.1691 F1000.00
G01 X-30.2505 Y4.1651 F1000.00
G01 X-30.2386 Y4.1626 F1000.00
G01 X-30.2313 Y4.1618 F1000.00
G01 X-30.2240 Y4.1615 F1000.00
G01 X-30.2167 Y4.1618 F1000.00
G01 X-30.2094 Y4.1626 F1000.00
G01 X-30.1975 Y4.1651 F1000.00
G01 X-30.1859 Y4.1691 F1000.00
G01 X-30.1793 Y4.1721 F1000.00
G01 X-30.1728 Y4.1756 F1000.00
G01 X-30.1627 Y4.1825 F1000.00
G01 X-30.1553 Y4.1888 F1000.00
G01 X-30.1253 Y4.2213 F1000.00
G01 X-30.1233 Y4.2233 F1000.00
G01 X-30.1223 Y4.2236 F1000.00
G01 X-29.3122 Y4.2237 F1000.00
G01 X-29.3086 Y4.2231 F1000.00
G01 X-29.1067 Y4.0026 F1000.00
G01 X-29.1049 Y4.0000 F1000.00
G01 X-29.1049 Y3.1106 F1000.00
G01 X-29.1067 Y3.1079 F1000.00
G01 X-29.1457 Y3.0653 F1000.00
G01 X-29.1504 Y3.0595 F1000.00
G01 X-29.1559 Y3.0513 F1000.00
G01 X-29.1616 Y3.0404 F1000.00
G01 X-29.1644 Y3.0335 F1000.00
G01 X-29.1666 Y3.0264 F1000.00
G01 X-29.1692 Y3.0144 F1000.00
G01 X-29.1700 Y3.0070 F1000.00
G01 X-29.1703 Y2.9996 F1000.00
G01 X-29.1695 Y2.9873 F1000.00
G01 X-29.1672 Y2.9752 F1000.00
G01 X-29.1652 Y2.9681 F1000.00
G01 X-29.1626 Y2.9611 F1000.00
G01 X-29.1571 Y2.9501 F1000.00
G01 X-29.1518 Y2.9417 F1000.00
G01 X-29.1473 Y2.9359 F1000.00
G01 X-29.1068 Y2.8914 F1000.00
G01 X-29.1050 Y2.8890 F1000.00
G01 X-29.1053 Y2.8875 F1000.00
G01 X-29.1062 Y2.8870 F1000.00
G01 X-29.1070 Y2.8871 F1000.00
G01 X-29.1093 Y2.8892 F1000.00
G01 X-29.1342 Y2.9165 F1000.00
G01 X-29.1411 Y2.9233 F1000.00
G01 X-29.1487 Y2.9295 F1000.00
G01 X-29.1568 Y2.9349 F1000.00
G01 X-29.1633 Y2.9384 F1000.00
G01 X-29.1699 Y2.9414 F1000.00
G01 X-29.1815 Y2.9454 F1000.00
G01 X-29.1934 Y2.9479 F1000.00
G01 X-29.2007 Y2.9487 F1000.00
G01 X-29.2080 Y2.9490 F1000.00
G01 X-29.2153 Y2.9487 F1000.00
G01 X-29.2226 Y2.9479 F1000.00
G01 X-29.2345 Y2.9454 F1000.00
G01 X-29.2461 Y2.9414 F1000.00
G01 X-29.2527 Y2.9384 F1000.00
G01 X-29.2592 Y2.9349 F1000.00
G01 X-29.2693 Y2.9280 F1000.00
G01 X-29.2767 Y2.9217 F1000.00
G01 X-29.3066 Y2.8893 F1000.00
G01 X-29.3094 Y2.8870 F1000.00
G01 X-30.1198 Y2.8868 F1000.00
G01 X-30.1234 Y2.8874 F1000.00
G01 X-30.3253 Y3.1079 F1000.00
G01 X-30.3271 Y3.1105 F1000.00
G01 X-30.3273 Y3.9974 F1000.00
G01 X-30.3270 Y4.0003 F1000.00
G01 X-30.3253 Y4.0026 F1000.00
G01 X-30.2879 Y4.0434 F1000.00
M5
G00 X-29.1068 Y5.1139
G01 F60.00
M03 S_POWER_.0
G01 F1000.00
G01 X-29.1050 Y5.1117 F1000.00
G01 X-29.1050 Y5.1104 F1000.00
G01 X-29.1060 Y5.1095 F1000.00
G01 X-29.1088 Y5.1093 F1000.00
G01 X-30.3231 Y5.1093 F1000.00
G01 X-30.3262 Y5.1096 F1000.00
G01 X-30.3269 Y5.1101 F1000.00
G01 X-30.3271 Y5.1110 F1000.00
G01 X-30.3269 Y5.1119 F1000.00
G01 X-30.3262 Y5.1124 F1000.00
G01 X-30.3231 Y5.1127 F1000.00
G01 X-29.3347 Y5.1127 F1000.00
G01 X-29.3227 Y5.1137 F1000.00
G01 X-29.3109 Y5.1161 F1000.00
G01 X-29.2995 Y5.1200 F1000.00
G01 X-29.2886 Y5.1252 F1000.00
G01 X-29.2804 Y5.1302 F1000.00
G01 X-29.2728 Y5.1361 F1000.00
G01 X-29.2657 Y5.1426 F1000.00
G01 X-29.2593 Y5.1498 F1000.00
G01 X-29.2536 Y5.1575 F1000.00
G01 X-29.2487 Y5.1658 F1000.00
G01 X-29.2446 Y5.1745 F1000.00
G01 X-29.2414 Y5.1836 F1000.00
G01 X-29.2390 Y5.1929 F1000.00
G01 X-29.2376 Y5.2025 F1000.00
G01 X-29.2371 Y5.2121 F1000.00
G01 X-29.2375 Y5.2217 F1000.00
G01 X-29.2388 Y5.2312 F1000.00
G01 X-29.2411 Y5.2406 F1000.00
G01 X-29.2442 Y5.2497 F1000.00
G01 X-29.2482 Y5.2585 F1000.00
G01 X-29.2543 Y5.2688 F1000.00
G01 X-29.2617 Y5.2783 F1000.00
G01 X-29.5124 Y5.5526 F1000.00
G01 X-29.5143 Y5.5554 F1000.00
G01 X-29.5138 Y5.5566 F1000.00
G01 X-29.5127 Y5.5570 F1000.00
G01 X-29.5119 Y5.5567 F1000.00
G01 X-29.5099 Y5.5548 F1000.00
G01 X-29.1068 Y5.1139 F1000.00
M5
G00 X-30.3259 Y8.6120
G01 F60.00
M03 S_POWER_.0
G01 F1000.00
G01 X-30.3165 Y8.6149 F1000.00
G01 X-30.3096 Y8.6176 F1000.00
G01 X-30.3030 Y8.6208 F1000.00
G01 X-30.2946 Y8.6259 F1000.00
G01 X-30.2886 Y8.6302 F1000.00
G01 X-30.2830 Y8.6350 F1000.00
G01 X-30.2760 Y8.6419 F1000.00
G01 X-30.2713 Y8.6476 F1000.00
G01 X-30.2670 Y8.6536 F1000.00
G01 X-30.2631 Y8.6599 F1000.00
G01 X-30.2587 Y8.6687 F1000.00
G01 X-30.2560 Y8.6755 F1000.00
G01 X-30.2538 Y8.6825 F1000.00
G01 X-30.2516 Y8.6921 F1000.00
G01 X-30.2507 Y8.6995 F1000.00
G01 X-30.2502 Y8.7093 F1000.00
G01 X-30.2505 Y8.7167 F1000.00
G01 X-30.2513 Y8.7240 F1000.00
G01 X-30.2527 Y8.7312 F1000.00
G01 X-30.2546 Y8.7384 F1000.00
G01 X-30.2570 Y8.7453 F1000.00
G01 X-30.2600 Y8.7521 F1000.00
G01 X-30.2659 Y8.7628 F1000.00
G01 X-30.2701 Y8.7689 F1000.00
G01 X-30.2748 Y8.7746 F1000.00
G01 X-30.3253 Y8.8299 F1000.00
G01 X-30.3271 Y8.8326 F1000.00
G01 X-30.3273 Y9.7194 F1000.00
G01 X-30.3269 Y9.7226 F1000.00
G01 X-30.1254 Y9.9432 F1000.00
G01 X-30.1229 Y9.9454 F1000.00
G01 X-29.5153 Y9.9457 F1000.00
G01 X-29.5119 Y9.9453 F1000.00
G01 X-29.5113 Y9.9440 F1000.00
G01 X-29.5118 Y9.9428 F1000.00
G01 X-29.5153 Y9.9423 F1000.00
G01 X-30.0776 Y9.9423 F1000.00
G01 X-30.0905 Y9.9415 F1000.00
G01 X-30.1033 Y9.9390 F1000.00
G01 X-30.1155 Y9.9349 F1000.00
G01 X-30.1272 Y9.9292 F1000.00
G01 X-30.1380 Y9.9220 F1000.00
G01 X-30.1478 Y9.9136 F1000.00
G01 X-30.2978 Y9.7498 F1000.00
G01 X-30.3037 Y9.7427 F1000.00
G01 X-30.3089 Y9.7350 F1000.00
G01 X-30.3124 Y9.7290 F1000.00
G01 X-30.3180 Y9.7163 F1000.00
G01 X-30.3207 Y9.7075 F1000.00
G01 X-30.3222 Y9.7007 F1000.00
G01 X-30.3233 Y9.6938 F1000.00
G01 X-30.3239 Y9.6846 F1000.00
G01 X-30.3239 Y8.8722 F1000.00
G01 X-30.3237 Y8.8653 F1000.00
G01 X-30.3226 Y8.8561 F1000.00
G01 X-30.3207 Y8.8470 F1000.00
G01 X-30.3180 Y8.8382 F1000.00
G01 X-30.3144 Y8.8296 F1000.00
G01 X-30.3113 Y8.8235 F1000.00
G01 X-30.3064 Y8.8156 F1000.00
G01 X-30.3008 Y8.8082 F1000.00
G01 X-30.1478 Y8.6409 F1000.00
G01 X-30.1380 Y8.6325 F1000.00
G01 X-30.1294 Y8.6266 F1000.00
G01 X-30.1179 Y8.6206 F1000.00
G01 X-30.1082 Y8.6170 F1000.00
G01 X-30.1007 Y8.6149 F1000.00
G01 X-30.0931 Y8.6134 F1000.00
G01 X-30.0854 Y8.6125 F1000.00
G01 X-30.0776 Y8.6122 F1000.00
G01 X-29.5153 Y8.6122 F1000.00
G01 X-29.5119 Y8.6118 F1000.00
G01 X-29.5113 Y8.6108 F1000.00
G01 X-29.5115 Y8.6096 F1000.00
G01 X-29.5125 Y8.6090 F1000.00
G01 X-29.5153 Y8.6088 F1000.00
G01 X-30.3231 Y8.6088 F1000.00
G01 X-30.3259 Y8.6090 F1000.00
G01 X-30.3268 Y8.6095 F1000.00
G01 X-30.3270 Y8.6111 F1000.00
G01 X-30.3259 Y8.6120 F1000.00
M5
G00 X-31.9089 Y9.4297
G01 F60.00
M03 S_POWER_.0
G01 F1000.00
G01 X-31.9060 Y9.4295 F1000.00
G01 X-31.9050 Y9.4286 F1000.00
G01 X-31.9051 Y9.4272 F1000.00
G01 X-31.9071 Y9.4251 F1000.00
G01 X-32.4392 Y8.9261 F1000.00
G01 X-32.4455 Y8.9189 F1000.00
G01 X-32.4512 Y8.9111 F1000.00
G01 X-32.4560 Y8.9028 F1000.00
G01 X-32.4601 Y8.8940 F1000.00
G01 X-32.4632 Y8.8850 F1000.00
G01 X-32.4655 Y8.8756 F1000.00
G01 X-32.4669 Y8.8661 F1000.00
G01 X-32.4674 Y8.8565 F1000.00
G01 X-32.4669 Y8.8469 F1000.00
G01 X-32.4655 Y8.8374 F1000.00
G01 X-32.4632 Y8.8280 F1000.00
G01 X-32.4601 Y8.8190 F1000.00
G01 X-32.4560 Y8.8102 F1000.00
G01 X-32.4512 Y8.8019 F1000.00
G01 X-32.4455 Y8.7941 F1000.00
G01 X-32.4392 Y8.7869 F1000.00
G01 X-31.9071 Y8.2879 F1000.00
G01 X-31.9050 Y8.2856 F1000.00
G01 X-31.9049 Y8.2847 F1000.00
G01 X-31.9053 Y8.2839 F1000.00
G01 X-31.9061 Y8.2835 F1000.00
G01 X-31.9089 Y8.2833 F1000.00
G01 X-33.1231 Y8.2833 F1000.00
G01 X-33.1259 Y8.2835 F1000.00
G01 X-33.1267 Y8.2839 F1000.00
G01 X-33.1271 Y8.2851 F1000.00
G01 X-33.1266 Y8.2862 F1000.00
G01 X-33.1231 Y8.2867 F1000.00
G01 X-32.1610 Y8.2867 F1000.00
G01 X-32.1535 Y8.2871 F1000.00
G01 X-32.1437 Y8.2886 F1000.00
G01 X-32.1340 Y8.2911 F1000.00
G01 X-32.1247 Y8.2945 F1000.00
G01 X-32.1157 Y8.2988 F1000.00
G01 X-32.1072 Y8.3040 F1000.00
G01 X-32.0993 Y8.3099 F1000.00
G01 X-32.0937 Y8.3149 F1000.00
G01 X-32.0870 Y8.3222 F1000.00
G01 X-32.0809 Y8.3301 F1000.00
G01 X-32.0770 Y8.3365 F1000.00
G01 X-32.0724 Y8.3453 F1000.00
G01 X-32.0687 Y8.3545 F1000.00
G01 X-32.0660 Y8.3641 F1000.00
G01 X-32.0643 Y8.3739 F1000.00
G01 X-32.0636 Y8.3813 F1000.00
G01 X-32.0635 Y8.3888 F1000.00
G01 X-32.0642 Y8.3987 F1000.00
G01 X-32.0659 Y8.4085 F1000.00
G01 X-32.0685 Y8.4181 F1000.00
G01 X-32.0711 Y8.4251 F1000.00
G01 X-32.0754 Y8.4341 F1000.00
G01 X-32.0792 Y8.4405 F1000.00
G01 X-32.0850 Y8.4486 F1000.00
G01 X-32.0898 Y8.4543 F1000.00
G01 X-32.0951 Y8.4596 F1000.00
G01 X-32.5154 Y8.8537 F1000.00
G01 X-32.5172 Y8.8556 F1000.00
G01 X-32.5175 Y8.8566 F1000.00
G01 X-32.5172 Y8.8574 F1000.00
G01 X-32.5154 Y8.8593 F1000.00
G01 X-32.0915 Y9.2569 F1000.00
G01 X-32.0850 Y9.2644 F1000.00
G01 X-32.0792 Y9.2725 F1000.00
G01 X-32.0743 Y9.2811 F1000.00
G01 X-32.0702 Y9.2902 F1000.00
G01 X-32.0678 Y9.2973 F1000.00
G01 X-32.0654 Y9.3069 F1000.00
G01 X-32.0639 Y9.3168 F1000.00
G01 X-32.0635 Y9.3267 F1000.00
G01 X-32.0638 Y9.3341 F1000.00
G01 X-32.0650 Y9.3440 F1000.00
G01 X-32.0673 Y9.3537 F1000.00
G01 X-32.0705 Y9.3631 F1000.00
G01 X-32.0746 Y9.3722 F1000.00
G01 X-32.0782 Y9.3787 F1000.00
G01 X-32.0839 Y9.3869 F1000.00
G01 X-32.0903 Y9.3945 F1000.00
G01 X-32.0956 Y9.3998 F1000.00
G01 X-32.1032 Y9.4061 F1000.00
G01 X-32.1114 Y9.4117 F1000.00
G01 X-32.1179 Y9.4154 F1000.00
G01 X-32.1270 Y9.4195 F1000.00
G01 X-32.1340 Y9.4219 F1000.00
G01 X-32.1437 Y9.4244 F1000.00
G01 X-32.1535 Y9.4259 F1000.00
G01 X-32.1635 Y9.4263 F1000.00
G01 X-33.1231 Y9.4263 F1000.00
G01 X-33.1266 Y9.4268 F1000.00
G01 X-33.1271 Y9.4279 F1000.00
G01 X-33.1267 Y9.4291 F1000.00
G01 X-33.1259 Y9.4295 F1000.00
G01 X-33.1231 Y9.4297 F1000.00
G01 X-31.9089 Y9.4297 F1000.00
M5
G00 X-32.7175 Y9.9107
G01 F60.00
M03 S_POWER_.0
G01 F1000.00
G01 X-32.7173 Y9.9033 F1000.00
G01 X-32.7161 Y9.8936 F1000.00
G01 X-32.7146 Y9.8864 F1000.00
G01 X-32.7117 Y9.8770 F1000.00
G01 X-32.7079 Y9.8679 F1000.00
G01 X-32.7046 Y9.8614 F1000.00
G01 X-32.6993 Y9.8531 F1000.00
G01 X-32.6949 Y9.8472 F1000.00
G01 X-32.6900 Y9.8417 F1000.00
G01 X-32.6829 Y9.8349 F1000.00
G01 X-32.6771 Y9.8303 F1000.00
G01 X-32.6710 Y9.8262 F1000.00
G01 X-32.6647 Y9.8225 F1000.00
G01 X-32.6558 Y9.8183 F1000.00
G01 X-32.6489 Y9.8157 F1000.00
G01 X-32.6395 Y9.8131 F1000.00
G01 X-32.6274 Y9.8111 F1000.00
G01 X-32.6175 Y9.8107 F1000.00
G01 X-32.3530 Y9.8107 F1000.00
G01 X-32.3436 Y9.8111 F1000.00
G01 X-32.3366 Y9.8120 F1000.00
G01 X-32.3274 Y9.8140 F1000.00
G01 X-32.3184 Y9.8168 F1000.00
G01 X-32.3098 Y9.8205 F1000.00
G01 X-32.3015 Y9.8249 F1000.00
G01 X-32.2936 Y9.8302 F1000.00
G01 X-32.2863 Y9.8361 F1000.00
G01 X-31.9397 Y10.1611 F1000.00
G01 X-31.9326 Y10.1684 F1000.00
G01 X-31.9248 Y10.1786 F1000.00
G01 X-31.9196 Y10.1874 F1000.00
G01 X-31.9153 Y10.1966 F1000.00
G01 X-31.9127 Y10.2039 F1000.00
G01 X-31.9101 Y10.2137 F1000.00
G01 X-31.9086 Y10.2238 F1000.00
G01 X-31.9081 Y10.2315 F1000.00
G01 X-31.9081 Y10.5270 F1000.00
G01 X-31.9089 Y10.5397 F1000.00
G01 X-31.9113 Y10.5522 F1000.00
G01 X-31.9153 Y10.5644 F1000.00
G01 X-31.9196 Y10.5736 F1000.00
G01 X-31.9234 Y10.5803 F1000.00
G01 X-31.9278 Y10.5866 F1000.00
G01 X-31.9343 Y10.5945 F1000.00
G01 X-31.9397 Y10.5999 F1000.00
G01 X-32.2846 Y10.9233 F1000.00
G01 X-32.2918 Y10.9294 F1000.00
G01 X-32.2995 Y10.9348 F1000.00
G01 X-32.3076 Y10.9395 F1000.00
G01 X-32.3162 Y10.9433 F1000.00
G01 X-32.3251 Y10.9464 F1000.00
G01 X-32.3343 Y10.9486 F1000.00
G01 X-32.3413 Y10.9497 F1000.00
G01 X-32.3506 Y10.9503 F1000.00
G01 X-32.6175 Y10.9503 F1000.00
G01 X-32.6249 Y10.9501 F1000.00
G01 X-32.6322 Y10.9493 F1000.00
G01 X-32.6395 Y10.9479 F1000.00
G01 X-32.6466 Y10.9460 F1000.00
G01 X-32.6581 Y10.9418 F1000.00
G01 X-32.6690 Y10.9361 F1000.00
G01 X-32.6791 Y10.9292 F1000.00
G01 X-32.6847 Y10.9244 F1000.00
G01 X-32.6900 Y10.9193 F1000.00
G01 X-32.6979 Y10.9099 F1000.00
G01 X-32.7020 Y10.9038 F1000.00
G01 X-32.7057 Y10.8975 F1000.00
G01 X-32.7108 Y10.8863 F1000.00
G01 X-32.7139 Y10.8770 F1000.00
G01 X-32.7156 Y10.8699 F1000.00
G01 X-32.7171 Y10.8602 F1000.00
G01 X-32.7175 Y10.8503 F1000.00
G01 X-32.7175 Y9.9107 F1000.00
M5
G00 X-32.8209 Y9.8107
G01 F60.00
M03 S_POWER_.0
G01 F1000.00
G01 X-32.8135 Y9.8109 F1000.00
G01 X-32.8038 Y9.8121 F1000.00
G01 X-32.7942 Y9.8143 F1000.00
G01 X-32.7849 Y9.8174 F1000.00
G01 X-32.7759 Y9.8213 F1000.00
G01 X-32.7674 Y9.8262 F1000.00
G01 X-32.7613 Y9.8303 F1000.00
G01 X-32.7537 Y9.8366 F1000.00
G01 X-32.7468 Y9.8435 F1000.00
G01 X-32.7420 Y9.8491 F1000.00
G01 X-32.7364 Y9.8572 F1000.00
G01 X-32.7315 Y9.8657 F1000.00
G01 X-32.7276 Y9.8747 F1000.00
G01 X-32.7245 Y9.8840 F1000.00
G01 X-32.7228 Y9.8911 F1000.00
G01 X-32.7213 Y9.9008 F1000.00
G01 X-32.7209 Y9.9107 F1000.00
G01 X-32.7209 Y10.8503 F1000.00
G01 X-32.7211 Y10.8577 F1000.00
G01 X-32.7219 Y10.8650 F1000.00
G01 X-32.7245 Y10.8770 F1000.00
G01 X-32.7267 Y10.8840 F1000.00
G01 X-32.7294 Y10.8909 F1000.00
G01 X-32.7351 Y10.9018 F1000.00
G01 X-32.7391 Y10.9079 F1000.00
G01 X-32.7435 Y10.9138 F1000.00
G01 X-32.7484 Y10.9193 F1000.00
G01 X-32.7537 Y10.9244 F1000.00
G01 X-32.7593 Y10.9292 F1000.00
G01 X-32.7653 Y10.9335 F1000.00
G01 X-32.7759 Y10.9397 F1000.00
G01 X-32.7872 Y10.9445 F1000.00
G01 X-32.7942 Y10.9467 F1000.00
G01 X-32.8013 Y10.9484 F1000.00
G01 X-32.8110 Y10.9499 F1000.00
G01 X-32.8209 Y10.9503 F1000.00
G01 X-33.1231 Y10.9503 F1000.00
G01 X-33.1263 Y10.9507 F1000.00
G01 X-33.1271 Y10.9516 F1000.00
G01 X-33.1270 Y10.9526 F1000.00
G01 X-33.1260 Y10.9535 F1000.00
G01 X-33.1231 Y10.9537 F1000.00
G01 X-32.3122 Y10.9534 F1000.00
G01 X-31.9051 Y10.5717 F1000.00
G01 X-31.9047 Y10.5684 F1000.00
G01 X-31.9047 Y10.1926 F1000.00
G01 X-31.9050 Y10.1894 F1000.00
G01 X-31.9071 Y10.1870 F1000.00
G01 X-32.3100 Y9.8094 F1000.00
G01 X-32.3124 Y9.8075 F1000.00
G01 X-33.1231 Y9.8073 F1000.00
G01 X-33.1262 Y9.8076 F1000.00
G01 X-33.1269 Y9.8081 F1000.00
G01 X-33.1271 Y9.8090 F1000.00
G01 X-33.1269 Y9.8099 F1000.00
G01 X-33.1262 Y9.8104 F1000.00
G01 X-33.1231 Y9.8107 F1000.00
G01 X-32.8209 Y9.8107 F1000.00
M5
G00 X-33.1273 Y7.9015
G01 F60.00
M03 S_POWER_.0
G01 F1000.00
G01 X-33.1271 Y7.9043 F1000.00
G01 X-33.1267 Y7.9051 F1000.00
G01 X-33.1259 Y7.9055 F1000.00
G01 X-33.1231 Y7.9057 F1000.00
G01 X-31.9089 Y7.9057 F1000.00
G01 X-31.9061 Y7.9055 F1000.00
G01 X-31.9053 Y7.9051 F1000.00
G01 X-31.9049 Y7.9043 F1000.00
G01 X-31.9047 Y7.9015 F1000.00
G01 X-31.9047 Y6.7635 F1000.00
G01 X-31.9049 Y6.7607 F1000.00
G01 X-31.9053 Y6.7599 F1000.00
G01 X-31.9064 Y6.7595 F1000.00
G01 X-31.9076 Y6.7600 F1000.00
G01 X-31.9081 Y6.7635 F1000.00
G01 X-31.9081 Y7.8048 F1000.00
G01 X-31.9088 Y7.8146 F1000.00
G01 X-31.9105 Y7.8243 F1000.00
G01 X-31.9124 Y7.8314 F1000.00
G01 X-31.9157 Y7.8406 F1000.00
G01 X-31.9199 Y7.8495 F1000.00
G01 X-31.9249 Y7.8579 F1000.00
G01 X-31.9307 Y7.8658 F1000.00
G01 X-31.9373 Y7.8731 F1000.00
G01 X-31.9446 Y7.8797 F1000.00
G01 X-31.9525 Y7.8855 F1000.00
G01 X-31.9588 Y7.8894 F1000.00
G01 X-31.9675 Y7.8938 F1000.00
G01 X-31.9767 Y7.8973 F1000.00
G01 X-31.9861 Y7.8999 F1000.00
G01 X-31.9934 Y7.9013 F1000.00
G01 X-32.0031 Y7.9022 F1000.00
G01 X-32.4168 Y7.9023 F1000.00
G01 X-32.4290 Y7.9013 F1000.00
G01 X-32.4386 Y7.8994 F1000.00
G01 X-32.4503 Y7.8956 F1000.00
G01 X-32.4593 Y7.8917 F1000.00
G01 X-32.4699 Y7.8855 F1000.00
G01 X-32.4778 Y7.8797 F1000.00
G01 X-32.4851 Y7.8731 F1000.00
G01 X-32.4932 Y7.8639 F1000.00
G01 X-32.4988 Y7.8558 F1000.00
G01 X-32.5025 Y7.8495 F1000.00
G01 X-32.5058 Y7.8429 F1000.00
G01 X-32.5085 Y7.8360 F1000.00
G01 X-32.5107 Y7.8290 F1000.00
G01 X-32.5124 Y7.8219 F1000.00
G01 X-32.5136 Y7.8146 F1000.00
G01 X-32.5143 Y7.8048 F1000.00
G01 X-32.5143 Y7.1445 F1000.00
G01 X-32.5146 Y7.1414 F1000.00
G01 X-32.5151 Y7.1407 F1000.00
G01 X-32.5160 Y7.1405 F1000.00
G01 X-32.5169 Y7.1407 F1000.00
G01 X-32.5174 Y7.1414 F1000.00
G01 X-32.5177 Y7.1445 F1000.00
G01 X-32.5177 Y7.8048 F1000.00
G01 X-32.5181 Y7.8122 F1000.00
G01 X-32.5191 Y7.8194 F1000.00
G01 X-32.5206 Y7.8266 F1000.00
G01 X-32.5227 Y7.8337 F1000.00
G01 X-32.5253 Y7.8406 F1000.00
G01 X-32.5283 Y7.8473 F1000.00
G01 X-32.5345 Y7.8579 F1000.00
G01 X-32.5419 Y7.8677 F1000.00
G01 X-32.5487 Y7.8748 F1000.00
G01 X-32.5581 Y7.8827 F1000.00
G01 X-32.5662 Y7.8881 F1000.00
G01 X-32.5771 Y7.8938 F1000.00
G01 X-32.5863 Y7.8973 F1000.00
G01 X-32.5981 Y7.9004 F1000.00
G01 X-32.6078 Y7.9019 F1000.00
G01 X-32.6177 Y7.9023 F1000.00
G01 X-33.0239 Y7.9023 F1000.00
G01 X-33.0338 Y7.9019 F1000.00
G01 X-33.0410 Y7.9009 F1000.00
G01 X-33.0506 Y7.8987 F1000.00
G01 X-33.0599 Y7.8956 F1000.00
G01 X-33.0689 Y7.8917 F1000.00
G01 X-33.0774 Y7.8868 F1000.00
G01 X-33.0835 Y7.8827 F1000.00
G01 X-33.0911 Y7.8764 F1000.00
G01 X-33.0980 Y7.8695 F1000.00
G01 X-33.1043 Y7.8619 F1000.00
G01 X-33.1097 Y7.8538 F1000.00
G01 X-33.1133 Y7.8473 F1000.00
G01 X-33.1172 Y7.8383 F1000.00
G01 X-33.1203 Y7.8290 F1000.00
G01 X-33.1220 Y7.8219 F1000.00
G01 X-33.1235 Y7.8122 F1000.00
G01 X-33.1239 Y7.8023 F1000.00
G01 X-33.1239 Y6.7635 F1000.00
G01 X-33.1244 Y6.7600 F1000.00
G01 X-33.1256 Y6.7595 F1000.00
G01 X-33.1267 Y6.7599 F1000.00
G01 X-33.1271 Y6.7607 F1000.00
G01 X-33.1273 Y6.7635 F1000.00
G01 X-33.1273 Y7.9015 F1000.00
M5
G00 X-33.1231 Y5.8068
G01 F60.00
M03 S_POWER_.0
G01 F1000.00
G01 X-33.1265 Y5.8072 F1000.00
G01 X-33.1271 Y5.8082 F1000.00
G01 X-33.1269 Y5.8094 F1000.00
G01 X-33.1259 Y5.8100 F1000.00
G01 X-33.1231 Y5.8102 F1000.00
G01 X-32.0081 Y5.8102 F1000.00
G01 X-31.9958 Y5.8109 F1000.00
G01 X-31.9861 Y5.8126 F1000.00
G01 X-31.9744 Y5.8160 F1000.00
G01 X-31.9653 Y5.8198 F1000.00
G01 X-31.9546 Y5.8257 F1000.00
G01 X-31.9446 Y5.8328 F1000.00
G01 X-31.9356 Y5.8412 F1000.00
G01 X-31.9307 Y5.8467 F1000.00
G01 X-31.9263 Y5.8526 F1000.00
G01 X-31.9223 Y5.8587 F1000.00
G01 X-31.9187 Y5.8652 F1000.00
G01 X-31.9139 Y5.8765 F1000.00
G01 X-31.9105 Y5.8882 F1000.00
G01 X-31.9085 Y5.9003 F1000.00
G01 X-31.9081 Y5.9102 F1000.00
G01 X-31.9081 Y6.3775 F1000.00
G01 X-31.9079 Y6.3803 F1000.00
G01 X-31.9075 Y6.3811 F1000.00
G01 X-31.9061 Y6.3815 F1000.00
G01 X-31.9050 Y6.3806 F1000.00
G01 X-31.9047 Y5.2395 F1000.00
G01 X-31.9049 Y5.2366 F1000.00
G01 X-31.9058 Y5.2356 F1000.00
G01 X-31.9070 Y5.2356 F1000.00
G01 X-31.9077 Y5.2363 F1000.00
G01 X-31.9081 Y5.2395 F1000.00
G01 X-31.9081 Y5.7068 F1000.00
G01 X-31.9085 Y5.7167 F1000.00
G01 X-31.9105 Y5.7288 F1000.00
G01 X-31.9139 Y5.7405 F1000.00
G01 X-31.9187 Y5.7518 F1000.00
G01 X-31.9223 Y5.7583 F1000.00
G01 X-31.9263 Y5.7644 F1000.00
G01 X-31.9307 Y5.7703 F1000.00
G01 X-31.9356 Y5.7758 F1000.00
G01 X-31.9446 Y5.7842 F1000.00
G01 X-31.9546 Y5.7913 F1000.00
G01 X-31.9653 Y5.7972 F1000.00
G01 X-31.9744 Y5.8010 F1000.00
G01 X-31.9861 Y5.8044 F1000.00
G01 X-31.9958 Y5.8061 F1000.00
G01 X-32.0081 Y5.8068 F1000.00
G01 X-33.1231 Y5.8068 F1000.00
M5
G00 X-33.1273 Y4.8535
G01 F60.00
M03 S_POWER_.0
G01 F1000.00
G01 X-33.1271 Y4.8563 F1000.00
G01 X-33.1267 Y4.8571 F1000.00
G01 X-33.1259 Y4.8575 F1000.00
G01 X-33.1231 Y4.8577 F1000.00
G01 X-31.9089 Y4.8577 F1000.00
G01 X-31.9061 Y4.8575 F1000.00
G01 X-31.9053 Y4.8571 F1000.00
G01 X-31.9049 Y4.8563 F1000.00
G01 X-31.9047 Y4.8535 F1000.00
G01 X-31.9047 Y3.7155 F1000.00
G01 X-31.9049 Y3.7127 F1000.00
G01 X-31.9053 Y3.7119 F1000.00
G01 X-31.9064 Y3.7115 F1000.00
G01 X-31.9076 Y3.7120 F1000.00
G01 X-31.9081 Y3.7155 F1000.00
G01 X-31.9081 Y4.7568 F1000.00
G01 X-31.9088 Y4.7666 F1000.00
G01 X-31.9105 Y4.7763 F1000.00
G01 X-31.9124 Y4.7834 F1000.00
G01 X-31.9157 Y4.7926 F1000.00
G01 X-31.9199 Y4.8015 F1000.00
G01 X-31.9249 Y4.8099 F1000.00
G01 X-31.9307 Y4.8178 F1000.00
G01 X-31.9373 Y4.8251 F1000.00
G01 X-31.9446 Y4.8317 F1000.00
G01 X-31.9525 Y4.8375 F1000.00
G01 X-31.9588 Y4.8414 F1000.00
G01 X-31.9675 Y4.8458 F1000.00
G01 X-31.9767 Y4.8493 F1000.00
G01 X-31.9861 Y4.8519 F1000.00
G01 X-31.9934 Y4.8533 F1000.00
G01 X-32.0031 Y4.8542 F1000.00
G01 X-32.4168 Y4.8543 F1000.00
G01 X-32.4290 Y4.8533 F1000.00
G01 X-32.4386 Y4.8514 F1000.00
G01 X-32.4503 Y4.8476 F1000.00
G01 X-32.4593 Y4.8437 F1000.00
G01 X-32.4699 Y4.8375 F1000.00
G01 X-32.4778 Y4.8317 F1000.00
G01 X-32.4851 Y4.8251 F1000.00
G01 X-32.4932 Y4.8159 F1000.00
G01 X-32.4988 Y4.8078 F1000.00
G01 X-32.5025 Y4.8015 F1000.00
G01 X-32.5058 Y4.7949 F1000.00
G01 X-32.5085 Y4.7880 F1000.00
G01 X-32.5107 Y4.7810 F1000.00
G01 X-32.5124 Y4.7739 F1000.00
G01 X-32.5136 Y4.7666 F1000.00
G01 X-32.5143 Y4.7568 F1000.00
G01 X-32.5143 Y4.0965 F1000.00
G01 X-32.5146 Y4.0934 F1000.00
G01 X-32.5151 Y4.0927 F1000.00
G01 X-32.5160 Y4.0925 F1000.00
G01 X-32.5169 Y4.0927 F1000.00
G01 X-32.5174 Y4.0934 F1000.00
G01 X-32.5177 Y4.0965 F1000.00
G01 X-32.5177 Y4.7568 F1000.00
G01 X-32.5181 Y4.7642 F1000.00
G01 X-32.5191 Y4.7714 F1000.00
G01 X-32.5206 Y4.7786 F1000.00
G01 X-32.5227 Y4.7857 F1000.00
G01 X-32.5253 Y4.7926 F1000.00
G01 X-32.5283 Y4.7993 F1000.00
G01 X-32.5345 Y4.8099 F1000.00
G01 X-32.5419 Y4.8197 F1000.00
G01 X-32.5487 Y4.8268 F1000.00
G01 X-32.5581 Y4.8347 F1000.00
G01 X-32.5662 Y4.8401 F1000.00
G01 X-32.5771 Y4.8458 F1000.00
G01 X-32.5863 Y4.8493 F1000.00
G01 X-32.5981 Y4.8524 F1000.00
G01 X-32.6078 Y4.8539 F1000.00
G01 X-32.6177 Y4.8543 F1000.00
G01 X-33.0239 Y4.8543 F1000.00
G01 X-33.0338 Y4.8539 F1000.00
G01 X-33.0410 Y4.8529 F1000.00
G01 X-33.0506 Y4.8507 F1000.00
G01 X-33.0599 Y4.8476 F1000.00
G01 X-33.0689 Y4.8437 F1000.00
G01 X-33.0774 Y4.8388 F1000.00
G01 X-33.0835 Y4.8347 F1000.00
G01 X-33.0911 Y4.8284 F1000.00
G01 X-33.0980 Y4.8215 F1000.00
G01 X-33.1043 Y4.8139 F1000.00
G01 X-33.1097 Y4.8058 F1000.00
G01 X-33.1133 Y4.7993 F1000.00
G01 X-33.1172 Y4.7903 F1000.00
G01 X-33.1203 Y4.7810 F1000.00
G01 X-33.1220 Y4.7739 F1000.00
G01 X-33.1235 Y4.7642 F1000.00
G01 X-33.1239 Y4.7543 F1000.00
G01 X-33.1239 Y3.7155 F1000.00
G01 X-33.1244 Y3.7120 F1000.00
G01 X-33.1256 Y3.7115 F1000.00
G01 X-33.1267 Y3.7119 F1000.00
G01 X-33.1271 Y3.7127 F1000.00
G01 X-33.1273 Y3.7155 F1000.00
G01 X-33.1273 Y4.8535 F1000.00
M5
G00 X-32.4143 Y3.3303
G01 F60.00
M03 S_POWER_.0
G01 F1000.00
G01 X-32.4242 Y3.3299 F1000.00
G01 X-32.4314 Y3.3289 F1000.00
G01 X-32.4410 Y3.3267 F1000.00
G01 X-32.4503 Y3.3236 F1000.00
G01 X-32.4593 Y3.3197 F1000.00
G01 X-32.4678 Y3.3148 F1000.00
G01 X-32.4739 Y3.3107 F1000.00
G01 X-32.4815 Y3.3044 F1000.00
G01 X-32.4868 Y3.2993 F1000.00
G01 X-32.4932 Y3.2919 F1000.00
G01 X-32.4988 Y3.2838 F1000.00
G01 X-32.5037 Y3.2753 F1000.00
G01 X-32.5076 Y3.2663 F1000.00
G01 X-32.5107 Y3.2570 F1000.00
G01 X-32.5124 Y3.2499 F1000.00
G01 X-32.5139 Y3.2402 F1000.00
G01 X-32.5143 Y3.2303 F1000.00
G01 X-32.5143 Y2.4235 F1000.00
G01 X-32.5135 Y2.4108 F1000.00
G01 X-32.5111 Y2.3983 F1000.00
G01 X-32.5071 Y2.3861 F1000.00
G01 X-32.5016 Y2.3746 F1000.00
G01 X-32.4946 Y2.3639 F1000.00
G01 X-32.4864 Y2.3542 F1000.00
G01 X-32.3393 Y2.2161 F1000.00
G01 X-32.3300 Y2.2088 F1000.00
G01 X-32.3200 Y2.2026 F1000.00
G01 X-32.3116 Y2.1985 F1000.00
G01 X-32.3005 Y2.1946 F1000.00
G01 X-32.2890 Y2.1920 F1000.00
G01 X-32.2773 Y2.1908 F1000.00
G01 X-32.1474 Y2.1907 F1000.00
G01 X-32.1357 Y2.1916 F1000.00
G01 X-32.1242 Y2.1940 F1000.00
G01 X-32.1130 Y2.1977 F1000.00
G01 X-32.1044 Y2.2015 F1000.00
G01 X-32.0943 Y2.2075 F1000.00
G01 X-32.0849 Y2.2146 F1000.00
G01 X-31.9378 Y2.3524 F1000.00
G01 X-31.9326 Y2.3579 F1000.00
G01 X-31.9278 Y2.3639 F1000.00
G01 X-31.9234 Y2.3702 F1000.00
G01 X-31.9196 Y2.3769 F1000.00
G01 X-31.9144 Y2.3885 F1000.00
G01 X-31.9120 Y2.3958 F1000.00
G01 X-31.9101 Y2.4032 F1000.00
G01 X-31.9086 Y2.4133 F1000.00
G01 X-31.9081 Y2.4235 F1000.00
G01 X-31.9081 Y3.2303 F1000.00
G01 X-31.9088 Y3.2426 F1000.00
G01 X-31.9110 Y3.2546 F1000.00
G01 X-31.9131 Y3.2617 F1000.00
G01 X-31.9157 Y3.2686 F1000.00
G01 X-31.9187 Y3.2753 F1000.00
G01 X-31.9223 Y3.2818 F1000.00
G01 X-31.9263 Y3.2879 F1000.00
G01 X-31.9307 Y3.2938 F1000.00
G01 X-31.9356 Y3.2993 F1000.00
G01 X-31.9409 Y3.3044 F1000.00
G01 X-31.9465 Y3.3092 F1000.00
G01 X-31.9525 Y3.3135 F1000.00
G01 X-31.9588 Y3.3174 F1000.00
G01 X-31.9653 Y3.3207 F1000.00
G01 X-31.9721 Y3.3236 F1000.00
G01 X-31.9790 Y3.3260 F1000.00
G01 X-31.9861 Y3.3279 F1000.00
G01 X-31.9934 Y3.3293 F1000.00
G01 X-32.0007 Y3.3301 F1000.00
G01 X-32.0081 Y3.3303 F1000.00
G01 X-32.4143 Y3.3303 F1000.00
M5
G00 X-32.7164 Y2.1894
G01 F60.00
M03 S_POWER_.0
G01 F1000.00
G01 X-32.7186 Y2.1876 F1000.00
G01 X-32.7216 Y2.1873 F1000.00
G01 X-33.1231 Y2.1873 F1000.00
G01 X-33.1262 Y2.1876 F1000.00
G01 X-33.1269 Y2.1881 F1000.00
G01 X-33.1271 Y2.1890 F1000.00
G01 X-33.1269 Y2.1899 F1000.00
G01 X-33.1262 Y2.1904 F1000.00
G01 X-33.1231 Y2.1907 F1000.00
G01 X-32.7570 Y2.1907 F1000.00
G01 X-32.7430 Y2.1920 F1000.00
G01 X-32.7293 Y2.1953 F1000.00
G01 X-32.7204 Y2.1985 F1000.00
G01 X-32.7099 Y2.2038 F1000.00
G01 X-32.7020 Y2.2088 F1000.00
G01 X-32.6927 Y2.2161 F1000.00
G01 X-32.5474 Y2.3524 F1000.00
G01 X-32.5389 Y2.3619 F1000.00
G01 X-32.5344 Y2.3681 F1000.00
G01 X-32.5304 Y2.3746 F1000.00
G01 X-32.5249 Y2.3861 F1000.00
G01 X-32.5209 Y2.3983 F1000.00
G01 X-32.5185 Y2.4108 F1000.00
G01 X-32.5177 Y2.4235 F1000.00
G01 X-32.5177 Y3.2303 F1000.00
G01 X-32.5179 Y3.2377 F1000.00
G01 X-32.5191 Y3.2474 F1000.00
G01 X-32.5206 Y3.2546 F1000.00
G01 X-32.5235 Y3.2640 F1000.00
G01 X-32.5283 Y3.2753 F1000.00
G01 X-32.5319 Y3.2818 F1000.00
G01 X-32.5359 Y3.2879 F1000.00
G01 X-32.5403 Y3.2938 F1000.00
G01 X-32.5452 Y3.2993 F1000.00
G01 X-32.5505 Y3.3044 F1000.00
G01 X-32.5561 Y3.3092 F1000.00
G01 X-32.5662 Y3.3161 F1000.00
